X:1
T:LE TOMBEAU DE COUPERIN
T:LE TOMBEAU DE COUPERIN
T:MAURICE RAVEL
T: I. PRÉLUDE
T:II. FUGUE
T:III. FORLANE
T:IV. RIGAUDON
T:V. MENUET
T:VI. TOCCATA
T:Copyright © DURAND Cie 1918
T:Copyright © DURAND Cie 1918
T:Copyright © DURAND Cie 1918
T:Copyright © DURAND Cie 1918
T:Copyright © DURAND Cie 1918
T:Copyright © DURAND Cie 1918
T:Copyright © DURAND Cie 1918
T:Copyright © DURAND Cie 1918
T:Copyright © DURAND Cie 1918
T:Copyright © DURAND Cie 1918
T:Copyright © DURAND Cie 1918
T:Copyright © DURAND Cie 1918
T:Copyright © DURAND Cie 1918
T:Copyright © DURAND Cie 1918
T:Copyright © DURAND Cie 1918
T:Copyright © DURAND Cie 1918
T:Copyright © DURAND Cie 1918
T:Copyright © DURAND Cie 1918
T:Copyright © DURAND Cie 1918
T:Copyright © DURAND Cie 1918
T:Copyright © DURAND Cie 1918
T:Copyright © DURAND Cie 1918
T:Copyright © DURAND Cie 1918
T:Copyright © DURAND Cie 1918
T:Copyright © DURAND Cie 1918
T:Copyright © DURAND Cie 1918
T:Copyright © DURAND Cie 1918
T:Copyright © DURAND Cie 1918
T:Copyright © DURAND Cie 1918
T:Copyright © DURAND Cie 1918
T:Copyright © DURAND Cie 1918
T:Copyright © DURAND Cie 1918
T:Copyright © DURAND Cie 1918
T:Copyright © DURAND Cie 1918
T:Copyright © DURAND Cie 1918
T:Copyright © DURAND Cie 1918
T:Copyright © DURAND Cie 1918
C:MAURICE RAVEL
Z:Copyright © DURAND Cie 1918
%%score { ( 1 4 5 ) | ( 2 3 ) }
L:1/8
Q:3/8=92
M:12/16
K:D
V:1 treble nm="Piano" snm="Pno."
V:4 treble 
V:5 treble 
V:2 treble 
V:3 treble 
V:1
"^Vif"!pp!"_PIANO""^à la mémoire du lieutenant Jacques Charlot" (A/G/D/E/G/B/) (A/G/D/E/G/B/) | %1
"^‿︵‿︵‿︵‿︵‿︵‿︵""^‿︵‿︵‿︵‿︵‿︵‿︵"{AB} A/G/A-<A{AB} A/G/A-<A | (A/G/D/E/G/B/) (A/G/D/E/G/B/) | %3
{AB} A/G/A-<A{AB} A/G/A-<A |:!pp! (c/!<(!B/c/A/B/c/ d/c/d/B/d/f/ | e/d/e/c/d/e/ f/e/f/d/f/a/)!<)! | %6
!>(! (f/g/e/d/e/B/!>)!!<(! ABd)!<)! |!>(! (f/g/e/d/e/B/!>)!!<(! AB^c)!<)! | %8
!>(! (f/g/e/d/e/B/ G/d/A/A/B/E/)!>)! |!p!{FG} ([DF]/^C/[DF]-<[DF]){FG} ([DF]/^C/[DF]-<[DF]) | %10
 ([^DF]/E/B,/^C/E/A/) ([DF]/E/B,/C/E/A/) |{FG} ([DF]/^C/[DF]-<[DF]){FG} ([DF]/^C/[DF]-<[DF]) | %12
 ([^DF]/E/B,/^C/E/A/) ([DF]/E/B,/C/E/A/) |!pp! (F/E/F/z/E/F/ ^c/F/c/B/^E/B/) | %14
 (=E/D/E/[I:staff +1]C/[I:staff -1]D/E/ A/^D/A/G/=D/G/) | %15
 (C/=B,/C/[I:staff +1]A,/[I:staff -1]B,/C/ D/=F/E/D/E/C/ |!<(! B,/C/A,/B,/C/D/ C/E/E/G/A/B/)!<)! | %17
!p! (e/d/e/[I:staff +1]c/[I:staff -1]d/e/ b/e/b/a/^d/a/) | %18
 (=d/c/d/[I:staff +1]B/[I:staff -1]c/d/ g/^c/g/=f/=c/f/) | %19
!<(! (_B/=A/B/[I:staff +1]G/[I:staff -1]A/=B/ c/_e/d/c/d/A/) | (A/_B/G/A/B/c/ A/G/E/D/C/D/)!<)! | %21
!mp!"_cresc."{!tenuto!ED} (E3 ^FAd) |{!tenuto!ED} E3{!tenuto!FE} F3 |{!tenuto!BA} (B3 ^cea) | %24
{!tenuto!BA} B3{!tenuto!cB} c3 |!f!!f!!<(!{!>!fe} f3{!>!fe} f3 |{!>!fe} f3{!>!fg} f3!<)! | %27
!ff!{!>!fa} f3 x3 |!>(! f/g/e/d/e/B/ B/d/A/G/E/F/!>)! |!p! (A/G/D/E/G/B/) (A/G/D/E/G/B/) |1 %30
{AB} (A/G/A-<A){AB} (A/G/A-<A) | ((A/G/D/E/G/B/)) ((A/G/D/E/G/B/)) | %32
{AB} (A/G/A-<A){AB} (A/G/A-<A) :|2 (!>!A/G/D/E/G/B/) (A/G/D/E/G/B/) | %34
!>(! (A/G/D/E/G/B/) (A/G/D/E/G/B/) | (A/G/D/E/G/B/) (A/G/D/E/G/B/)!>)! || %36
!pp! (A/G/D/E/G/B/) (A/G/D/E/G/B/) |{AB} A/G/A-<A{AB} A/G/A-<A | (A/G/D/E/G/B/) (A/G/D/E/G/B/) | %39
{AB} A/G/A-<A{AB} A/G/A-<A |!p!{ed} (x3 dgb) |{ed} (x3 dgb) |{ed} x3{dc} d3 |{dc} (x3 c=fa) | %44
{dc} (x3 c=fa) |{dc} x3{c^B} c3 |!<(! A2 x4[K:bass]!<)! | (E/D/A,/B,/!>(!D/F/) (E/D/A,/B,/D/F/) | %48
 (E/D/A,/B,/D/F/) (E/D/A,/B,/D/F/)!>)! |!pp!{EF} E/D/E-<E{EF} E/D/E-<E | %50
 (E/D/A,/B,/D/F/) (E/D/A,/B,/D/F/) |{EF} E/D/E-<E{EF} E/D/E-<E |[K:treble]{_BA} (B3 DGc) | %53
{_BA} (B3 DGc) |[K:bass]{[_A,=E]} E3{[A,=E]} E3 |[K:treble]{_AG} ((A3 C=F_B)) |{_AG} (A3 C=F_B) | %57
[K:bass]!<(!{[G,D]} D3{[_G,D]} D3!<)! |!mf!{^D,^A,-} A,3 x3 |{^D^A-} A3 x3[K:treble] | %60
 (^d/^c/d/B/c/d/ ^a/d/a/=a/=d/a/) | (^c/=B/c/A/B/c/ ^g/c/g/=g/=c/g/) | %62
!<(! (=B/A/B/G/A/B/ ^c/B/c/A/c/e/!<)! |!>(! ^c/d/B/A/B/G/ F/G/E/D/B,/^C/!>)! | %64
[K:bass] D/A,/F,/[I:staff +1]A,,/D,/F,/ A,/[I:staff -1][K:treble]D/F/A/d/f/) | %65
!pp! (a/g/a/=f/g/a/ e'/a/e'/!tenuto!^d'/^g/d'/) | (=g/=f/g/_e/f/g/ d'/g/d'/!tenuto!^c'/^f/c'/) | %67
 (=f/_e/f/x/e/f/ g/f/g/e/g/_b/ |!>(! g/_a/=f/_e/f/_d/ c/d/_B/_A/=F/G/!>)! | %69
 _A/_E/C/[I:staff +1]_A,/_E,/C,/)[I:staff -1] z3 |!mp!!<(!{^CB,} (C3 ^DFB) | %71
"^cresc."{^D^C} D3{^ED} E3 |{F=E} (F3 ^GBe) |{^GF} G3{^AG} A3 |{B^A} B3{^cB} c3 | %75
{!>!fe} f3{!>!fe} f3 |{!>!fe} f3{!>!fg} f3 |({!>!ba)} b3({!>!ba)} b3 | %78
({!>!c'b)} b3({!>!bc')} b3!<)! |!ff!{!>!bd'} ((b3 x3))[K:bass] | x6[K:treble] | %81
[K:treble]!8va(![I:staff +1] f'/[I:staff -1]a'/c''/e''/g''/g''/!>(! d''/e''/c''/b'/c''/a'/ | %82
 g'/a'/f'/e'/f'/d'/!8va)! c'/d'/b/a/b/g/ | f/g/e/d/e/c/ B/c/A/G/A/G/ | %84
[K:bass] E/F/D/C/D/B,/ A,/B,/G,/F,/G,/ z/!>)! |!pp! (E/D/A,/B,/D/F/) (E/D/A,/B,/D/F/) | %86
{[C-E]F} ([CE]/D/E-<E){[C-E]F} ([CE]/D/E-<E) | (E/D/A,/B,/D/F/) (E/D/A,/B,/D/F/) | %88
{[C-E]F} ([CE]/D/E-<E){[C-E]F} ([CE]/D/E-<E) |!<(! E/D/A,/B,/D/F/[K:treble] E/G/A/B/d/f/!<)! | %90
 e/d/A/!>(!B/A/D/[K:bass] E/D/A,/B,/A,/D,/ | %91
 E,/D,/A,,/B,,/A,,/D,,/!8va(! E/D/A,/B,/A,/!>)!D,/!8va)! |[K:bass] z6 | z6 | %94
 (5:3:5E,,/G,,/A,,/B,,/D,/[I:staff +1](5:3:5E,/G,/A,/B,/D/[I:staff -1][K:treble](5:3:5E/G/A/B/d/[I:staff +1](5:3:5e/g/a/b/d'/ | %95
!>(![I:staff -1] !///-!!fermata!e'3- f'3 | !fermata!e'3/2!>)! z3/2 z3 |] %97
[K:G][M:4/4][Q:1/4=84]"^Allegro moderato""^à la mémoire du sous-lieutenant Jean Cruppi."!pp! z8 | %98
 z8 | f3 g a2 b2- | bbd'a (3bag fa | e3 f d2 e2 | b3 a b3 a- |!<(! afge (3fed ^cd!<)! | %104
!>(! B4 z efd!>)! | e3 ^d =d3 ^c | =c2 d2 B z z2 | z (!>!e .d) z (!>!fd .B) z | %108
 (!>!e.d) z (f .d)(!>!f.d)!tenuto!B- | BA B2-!<(! (3BAB c(!tenuto!e-!<)! | %110
 ed e2-!<(! (3ede f!<)!!>(!g-!>)! |!pp! g(!>!c) .B) z (!>!dB .G) z | (!>!c.B) z (!>!d .B)!>!dBG | %113
!p! A4 f4- | f2 e2 a3 a- | agag (3gfe =d2 | e2 Be A2 FA | E2 _E2-!>(! ED=E^C!>)! | %118
!p! F3 G E2 A,A- | A3!<(! B G2 =F2!<)! | E(!>!d!mf! .e) z (!>!ce .g) z | %121
!<(! (!>!d.e) z (!>!c .e)(!>!ceg)!<)! |!f! c'2 g2 a4- |"_m.g." aabf (3gfe df | e2 B2 c4- | %125
 cA B2 B,2 ^C2 |[K:bass]!p! ^DB,=CA, (3B,A,G, F,A,- | x2 z (!>!C .B,) z (!>!DB, | %128
 G,3) (!>!A, .G,) z (!>!B,G, | .F,)[K:treble]!<(! z z E Ddec!<)! | %130
!>(! (3dcB Ac"^m.g.""_m.d." B2 B2-!>)! |!pp! B(!>!a .g) z (!>!bg .e) z | %132
 (!>!a.g) z (!>!b .g)(bgf- | f)(fge (3fed ^c)e- | e2 d2- (3d=cB AB | E z z (!>!d .e) z (!>!ce | %136
 .g) z (!>!d.e) z (!>!c .e)(!>!c |!mf!.e)gaf (3gfe dB | e2 dc B2 FE |!>(! D3 (D C2 D) z!>)! | %140
!pp! z (!>!A ^G) z (!>!BG .E) z | (.A.^G) z (!>!B .G)!>!BGE | B3!mp! c dB (3cBA | G2 A2 E3 D | %144
 E!>!e!mf! ^d z (!>!fd .B) z | (!>!e.^d) z (!>!f .d)(fd.B) | z!f! (!>!g .f) z (!>!af .d2-) | %147
 d(!>!c .B) z (!>!dB G2-) | G(!>!=F E2-) E(!>!D[K:bass] C2-) | C_B,!>(! G,2- G,A, ^F,2-!>)! | %150
!p! F,E, z (A,G,B, (3A,B,C | DB,C)D- D2 ED |!<(! E2 z (C B,[K:treble]D (3CDE!<)! | %153
 =F!>(!G c)B"^Rit."[Q:1/4=82] A=f ^f2!>)! | %154
!pp!"^Meno allegro"[Q:1/4=80] z (!>!a .g) z (!>!bg .e) z | %155
"^Ral." (!>!a.g) z[Q:1/4=78] (!>!b .g)(!>!bge) |"^Lent." z (b[Q:1/4=76]c'a"^Ral." (3bag fa | %157
[Q:1/4=74] e4) !fermata!e2 z2 |] %158
[M:6/8][Q:3/8=96]"^Allegretto"!p!"_PIANO""^à la mémoire du lieutenant Gabriel Delue." (E>AB) (!>!^d3- | %159
 d>^B^d B>=B^C | !tenuto!B2 ^C) ([=E^G]>^B,[^DG] | !tenuto!F2 E) (=E>F=D | [=G,B,E]>AB) (!>!^d3- | %163
 d>^B^d B>=B^C | !tenuto!B2 ^C) ([=E^G]>^B,[^DG] | !tenuto!F2 E) =E>F=D |: [=G,B,E]>AB !>!^d3 | %167
 b3 b3 | ^c'3 b3 |!<(! ^c'3 fac'!<)! |!mf! (e'>f'^d') (!>!d'2 e') | (^c'>^d'b) (!>!b2 c') | %172
 (!tenuto!^g>af) (!tenuto!e>f^c) | (!tenuto!B>^cA) (!tenuto!^G>F^C) | %174
 !tenuto![^G,^B,^D]3!>(! !tenuto![F,A,^C]3 | (((!tenuto![^G,^B,^D]3!>)! z2))) z | %176
!pp! (d>^^f^g) (!tenuto!b3- | b>_ab a>gB | !tenuto!g2 B) (dc_B) | (^c>^ef) !tenuto!a3- | %180
 a>_ga g>=fA | !tenuto!=f2 A (c_B_A) |[I:staff +1] (E>[I:staff -1]^AB) (!>!^d3- | d>^B^d B>=B^C | %184
 !tenuto!B2 ^C) ([=E^G]>^B,[^DG] | !tenuto!F2 E) (E>F=D :| [G,B,E]2) z!pp! g'3 |: b3 ^d3 | %188
[K:bass] G3{!>!FG-} G3 | [^CE]3{!>!FG-} G3 | [^CE]3[K:treble]!pp! g'3 | b3 ^d3 | %192
[K:bass] G3{!>!FG-} G3 | [^CE]3 ([DF]2 [A,C] |1 [^D,F,B,]2) z[K:treble]!pp! g'3 ::2 %195
[K:bass] [^D,F,B,]2 z[K:treble]!pp! (f>ef) || (^a>=ba) (^g>^fg) | !>!^c'3!>(! (b>c'^a) | %198
 (^g^af){^d^e} (d2 c | d2) z!>)!!p! (^G>!<(!=E^^F) | (^A>BA) (^G>FG)!<)! | !>!^d3 (^c>dB) | %202
!>(! (^G^AF){^D^C} (D2 ^E!>)! | [^A,^CF]2) z!pp! g'3 | b3 ^d3 |[K:bass] G3{!>!FG-} G3 | %206
 [^CE]3{!>!FG-} G3 | [^CE]3[K:treble] g'3 | b3 ^d3 |[K:bass] G3{FG-} G3 |2 [^CE]3 ([DF]2 [A,C]) :|1 %211
 [^CE]3 ([DF]2 [A,C]) || ([^G,E]>[K:treble]^AB) ^d3- | d>^B^d B>=B^C | %214
 !tenuto!B2 ^C ([=E^G]>^B,[^DG] | !tenuto!F2 E) (E>F=D) | ([=G,B,E]>^AB) !>!^d3- | (d>^B^d B>=B^C | %218
 !tenuto!B2 ^C) ([=E^G]>^B,[^DG]) | (F2 E) (E>F=D || [G,B,E]) z!pp! [df]{fg} [df]2 [^ce] |: %221
 [Bdf]2 [^ceb] !tenuto![ceb]2 [cea] | [df^c']2 [df]{fg} [df]2 [^ce] | %223
 [Bdf]2 [^ceb] af!courtesy!=g | [^cea] z [=ce]{ef} [ce]2 [Bd] | [ce]2 [df] [eg]>fd | %226
 !>![^cf]3- [cf]>a[cf] | [Ad]2 [^cf] (!///-![^Ge]3/2 f3/2 |1 .[^Ge]) z [df]{fg} [df]2 [^ce] :|2 %229
 .[^Ge] z [=gb]{b^c'} [gb]2 [fa] || [gb]2 [a^c'] [gbd']>c'[fa] | [fa^c']2 [gb]{bc'} [gb]2 [fa] | %232
 [gb]2 [fa^c'] [=fad']2 [ad'e'] | (([d'=f'] z)) [a=c'f']!<(!{f'e'} [ac'f']2 [gbe'] | %234
 [ac'=f']2 [bd'g'] [gc'e']2 [gc'f'] | [gc'g']2!<)!!mp! [ac']{c'b} [ac']2 [ad'] | %236
{c'bc'} b>ab!>(! [gc']>d'e'!>)! | [^a^c'^f']2 [ac'f'] [ac'f']2 [=a=c'e'] | %238
 [^a^c'f']2 [=a=c'e'] [^a^c'e']2 [fbd'] | [ac'e']2 [bd'] !>![bd']2 [eac'] | %240
 [bd']2 [eac'] [db]2 [cea] | [^A^c] z [^c'f'] (!>![c'f']a)[=c'e'] | %242
 (!>![^c'f']a)[=c'e'] (!>![c'e']f)[bd'] | (!>![c'e']f)[bd'] (!>![bd']e)[ac'] | %244
 (!>![bd']e)[ac'] (!>!bd)[cea] | [^A^c] z!pp! [df]{fg} [df]2 [ce] | %246
 [Bdf]2 [^ceb] !tenuto![ceb]2 [cea] | [df^c']2 [df]{fg} [df]2 [^ce] | %248
 [Bdf]2 [^ceb] af!courtesy!=g | [^cea] z [=ce]{ef} [ce]2 [Bd] | [ce]2 [df] [eg]>fd | %251
 !>![^cf]3- [cf]>a[cf] | [Ad]2 [^cf] !///-![^Ge]3/2 f3/2 || %253
[I:staff +1] (E>[I:staff -1]AB) (!>!^d3- | d>^B^d B>=B^C | !tenuto!B2 ^C) ([=E^G]>^B,[^DG] | %256
 !tenuto!F2 E) (=E>F=D) | ([=G,B,E]>^AB) !>!^d3- | (d>^B^d B>=B^C | %259
 !tenuto!B2 ^C) ([=E^G]>^B,[^DG] | !tenuto!F2 E) (E>F=D) | ([G,B,E]>^AB) z z/ (B/b-) | b3 (!>!b3 | %263
 ^c'3) (!>!b3 |!<(! ^c'3) x x2!<)! |!mf! (e'>f'^d') (!>!d'2 e') | (!tenuto!^c'>^d'b) (!>!b2 c') | %267
 (!tenuto!^g>af) (!tenuto!e>f^c) | (!tenuto!B>^cA) (!tenuto!^G>F^C) | %269
!>(! !tenuto![^G,B,^D]3 !tenuto![F,A,^C]3 | (([^G,B,^D]3!>)! z2)) z |!pp! (d>^^f^g) (!tenuto!b3- | %272
 b>_ab a>gB | !tenuto!g2 B) (dc_B) | (^c>^ef) (!tenuto!a3- | a>_ga g>=fA | !tenuto!=f2 A) (c_B_A) | %277
[I:staff +1] (E>[I:staff -1]^AB) (!>!^d3- | d>^B^d B>=B^C | !tenuto!B2 ^C) ([=E^G]>^B,[^DG] | %280
 !tenuto!F2 E) (E>F=D) ||[K:E] [=G,B,E] z!p! .[E^GB]{!>!BA} [EGB]3- | %282
 [EGB]2 .[FAc] [FAc]>[EB].[FAc] | [Aef]2 .[cfa]{!>!ag} [cfa]3- | %284
 [cfa]>[ceg].[Acf] [FAc]>[EB].[FAc] | (fe).[EGB]{!>!BA} [EGB]3- | [EGB]2 .[FAc] [FAc]>[EB].[FAc] | %287
 [Acdg]2 .[cefb]{!>![fb]-} [cefb]3- | [cefb]>[ca].[Beg] [Aef]>([FAc].[FBd]) |: %289
 [GBe] z!pp! .[=gb=d']!<(!{!>!d'c'} [gbd']3- | [gbd']3- [gbd']>e'.[^gb^c'] | %291
 [c=fg_bc']2!<)!!p! .[fa=c']!<(!{!>!c'=b} [fac']3- | [fac']3- [fac']>=d'.[_ab] | %293
 [Be_ab]2!<)!!f! .[E^GB]{!>!B=A} [EG-B-]3 |!>(! [DGB]2 .[DGc] [DGc]>B.[DGc]!>)! | %295
!pp! [=Ac^eg]2 .[^B=eg=b]{[e-g-b]} [Begb]3- | [Begb]>[^ea].[cg] [Acf]>[Ac].[=Bd] :| %297
[K:G] [GBe]2 z!pp!{/e'-} ([c'e']^g=f) |{/^f'-} ([^d'f']^a=g){/e'-} ([=c'e']^g=f) | %299
{/^f'-} ([^d'f']^a=g){/e'-} ([=c'e'][^g=d'][=fc'] | [eb][^fa][eb]) !trill(!!>!Tf3 | %301
 ([dg]bd'){/e'-} ([c'e']^g=f) |{/^f'-} ([^d'f']^a=g){/e'-} [=c'e'][^g=d'][=fc'] | %303
{/^f'-} ([^d'f']^a=g){/e'-} ([=c'e'][^g=d'][=fc'] | [eb][^fa][eb]) !trill(!!>!Tf3 | %305
 [Be]2 z (^d^E[F^c]) | (!tenuto!f^^F[^Ge]) (^d^E[^F^c]) | (!tenuto!f^^F[^Ge]) (^d^E[^F^c]) | %308
!<(! (B^B,[^CA])!<)!!>(! (^G^^G,[^A,F])!>)! | [^G,=B,^D]2 z (^d^E[=G^c]) | %310
 (!tenuto!f^^F[^Ge]) (^d^E[=G^c]) | (!tenuto!f^^F[^Ge]) (^d^E[=G^c]) | %312
 ([^GB]^B,[^EA]) ([=DF][^C!courtesy!^G][=C^D] | [=G,B,E]2) z!pp! (E>^AB) | !>![^D=G^d]6 | %315
 [G,B,E]>^AB !>![^D^G^d]3- | [DGd]3 ([G,B,E]>^AB | ^d) x x ^d' x2 | %318
!8va(! ^d''!8va)! z z!pp!{ba} [eb]3 |"^sans ralentir" z6 |] %320
[K:C][M:2/4]!ff!"^Assez vif""^à la mémoire de Pierre et Pascal Gaudin"[Q:1/4=100]"_PIANO" [EA].G/.A/ !>![Aceg]2 | %321
 .[ce]/.A/.F/.D/!mp! !>![CEGc]G/A/ | [Bce]/A/G/A/ .[Bce]!<(!G/A/ | [Bce]/A/G/A/ .[Bce]G/A/ | %324
 [Bce]/A/G/A/ [Bce]/A/G/E/ | [CE]/B,/A,/B,/ [CE]/B,/C/E/ | .[CG].[CG]/E/!<)! .[B,G]2 | %327
!ff! !>![gac'e'].d'/.e'/ !>![bd'e'g'b']2 ::!ff! !>![fg_bd'].c'/.d'/ !>![gc'e'g']!mf! z | %329
 (!>![_Ac_e]3 .[=Acf]) | .[^FAd].[EGc].[FAd].[D=F_B] | .d.e/.d/ .[EGc].[DF_B] | %332
 .[CEG].[_B,DF] .[G,CEG] z | (!>![_Ac_e]3 .[=Acf]) | .[F_Bd].[FAc] .[DFB]2 | %335
 [_B,C_EG]F/G/ .[FAd]!f! z | (!>![_df_a]3 [=df_b]) | .[^Ac^f].[=G=Be].[Ac=f].[^^FA^d] | %338
 .^f.^g/.f/ .[^GBe].[^F^A^d] | .[^E^G^c].[^D^F=B] .[C^EG]!f!"_piu" z | (!>![=e^gb]3 .[^eg^c']) | %341
 .[^c^f^a].[c^e^g] .[^Acf]2 |!ff! (!>![^G,B,^D]^C/D/ !>![^EA^c]2) | %343
 .[^F^A]/.^D/.B,/.^G,/ .[^A,^CF]!pp!^c'/^d'/ | [=a^c'e']/^d'/[ac']/d'/ .[ac'e'].[bd'^f'] | %345
 .[=gb^d'].[gb] .[gbd'][gb]/^c'/ | [gb=d']/^c'/[gb]/c'/ .[gbd'].[ac'e'] | %347
 .[=fa^c'].[fa] .[fac'][fa]/b/ | [fa=c']/b/a/b/ .[fac']!<(![eg]/a/ | %349
 [egb]/a/[eg]/a/ .[egb][eg]/a/ | [egb]/a/[eg]/a/ .[egb][eg]/a/!<)! |!f! [egb]/!<(!a/g/e/ B/A/G/F/ | %352
 C/B,/A,/B,/ C/B,/C/E/ | .[CG]!<)![CG]/E/ .[B,G]2 |!ff! !>![CEA].G/.A/ !>![Aceg]2 | %355
 .[ce]/.A/.F/.D/ !>![CEGc]2 :|[K:Eb]!pp!"^Moins vif" z2{!tenuto!GA} (G2- | G4- | G3 F) | %359
 (B/c/.d) (B/c/.d) | .c.e !tenuto!g2- | g(bgb |{fg} fe g2- | g)(_bgb |{fg} f2) e2- | e4- | e(feB | %367
{Bc} B2) A2- | A(BAF) | (F/G/.[CA]) (F/G/.[CA]) |{GA} .G.E (C/=D/.E) | (C/D/.E){DE} .D.B, | %372
 G, z{!tenuto!GA} (G2- | G4- | G3 F) | (B/c/.d) (B/c/.d) | .c.e !tenuto!g2- | g(bgb | %378
{fg} fe!<(! g2- | g)(fdc!<)! |{GB} G2)"^soutenu" F2- | F(GFC) | (D/E/.F) (D/E/.F) | .G.D (C/D/.E) | %384
 (C/D/.E){DE} .D.B, |!>(! G,4- | G,4- | G,4!>)! ||[K:C]!pp! z2{^c^d} c2- | c4- | cBAB | %391
 (^c/^d/.e) (d/e/.f) | (^g/^f/e/^d/){^cd} (cB) | .^G.B !tenuto!^d2 | (^c/^d/B/^A/ ^G2-) | G4 | %396
!p! (^c/!<(!^d/.e) (d/e/.f)!<)! | (^g/^f/e/^d/){^cd} (cB) | (d/e/.^f) .^g.e | %399
{ab} (a/^g/e/^f/) .^c.e |!>(! !tenuto!^f4- | f4- | f4- | f4!>)! |!pp! ([^C^c]4 | [^D^d]4 | %406
 [Ee]2 =d2 | [B,B]2 A2 | E4- | E4 | ^F4 |{DE} D2 ^C2) || %412
!ff!"^Tempo I" !>![A,=CEA].G/.A/ !>![Aceg]2 | .[ce]/.A/.F/.D/!mp! !>![CEGc]G/A/ | %414
 [Bce]/A/G/A/ .[Bce]!<(!G/A/ | [Bce]/A/G/A/ .[Bce]G/A/ | [Bce]/A/G/A/ [Bce]/A/G/E/ | %417
 [CE]/B,/A,/B,/ [CE]/B,/C/E/ | .[CG].[CG]/E/!<)! .[B,G]2 | %419
!ff! !>![gac'e'].d'/.e'/ !>![bd'e'g'b']2 ||!ff! !>![fg_bd'].c'/.d'/ !>![gc'e'g']!mf! z | %421
 (!>![_Ac_e]3 .[=Acf]) | .[^FAd].[EGc].[FAd].[D=F_B] | .d.e/.d/ .[EGc].[DF_B] | %424
 .[CEG].[_B,DF] .[G,CEG] z | (!>![_Ac_e]3 .[=Acf]) | .[F_Bd].[FAc] .[DFB]2 | %427
 (!>![_B,C_EG]F/G/ .[FAd])!f! z | (!>![_df_a]3 [=df_b]) | .[^Ac^f].[=G=Be].[Ac=f].[^^FA^d] | %430
 .^f.^g/.f/ .[^GBe].[^F^A^d] | .[^E^G^c].[^D^F=B] .[C^EG]!f!"_piu" z | (!>![=e^gb]3 .[^eg^c']) | %433
 .[^c^f^a].[c^e^g] .[^Acf]2 |!ff! (!>![^G,B,^D]^C/D/ !>![^EA^c]2) | %435
 .[^F^A]/.^D/.B,/.^G,/ .[^A,^CF]!pp!^c'/^d'/ | [=a^c'e']/^d'/[ac']/d'/ .[ac'e'].[bd'^f'] | %437
 .[=gb^d'].[gb] .[gbd'][gb]/^c'/ | [gb=d']/^c'/[gb]/c'/ .[gbd'].[ac'e'] | %439
 .[=fa^c'].[fa] .[fac'][fa]/b/ | [fa=c']/b/a/b/ .[fac']!<(![eg]/a/ | %441
 [egb]/a/[eg]/a/ .[egb][eg]/a/ | [egb]/a/[eg]/a/ .[egb][eg]/a/!<)! |!f! [egb]/!<(!a/g/e/ B/A/G/F/ | %444
 C/B,/A,/B,/ C/B,/C/E/ | .[CG]!<)![CG]/E/ .[B,G]2 |!ff! !>![CEA].G/.A/ !>![Aceg]2 | %447
 .[ce]/.A/.F/.D/ !>![CEGc]2 |] %448
[K:G][M:3/4][Q:1/4=92]"^Allegro moderato""^à la mémoire de Jean Dreyfus""_PIANO"{!tenuto!de} [Bd]2 ([GBc].d) !tenuto![GBd]2 | %449
 (!tenuto![EG]3 [FA] [EGB]2 | [DFA]2{GA} GE F2 | [B,DG]4) ([FA]2 |{!tenuto!cd} c3 B A2 | %453
 !tenuto!e2 de B2) | (!tenuto!.[FA]2 !tenuto!.[EB]2 !tenuto!.[^CG]2) | !tenuto![^DF]6 :: %456
{=de} d2 (cd) d2 | (!tenuto!e3 c B2 | A2 B2 c2) | (dc d2) !tenuto!f2 | (!tenuto!e3 c B2 | %461
 A2 B2 c2) | (d3!<(! e f2 | f2 g2 a2)!<)! |!mp! (f3 g e2) | d2 (!>!A2 B2) | (f3 ged | %467
 A2) (!>!B2 B2) | (f3!<(! e f2 | !tenuto![Bdg]2 !tenuto![fb]2!<)!!>(! !tenuto![dd']2 | f3 g e2 | %471
 d6)!>)! |!p!"_expressif"{!tenuto!e'=f'} !tenuto!e'2 (!tenuto!d'e') !tenuto!e'2 | %473
 (!tenuto!a3 c' b2 | a2 ^f2 ^g2) | (!tenuto!a4 c'2) |{d'e'} d'2 (!tenuto!c'd') !tenuto!d'2 | %477
 (!tenuto!g3 a b2 | [fa]2{ga} ge- [ef]2 | (([dg]4) z2)) :|[K:F]"^Musette"!pp! [B,FB]4 [A,CEA]2 | %481
 [G,B,DG]4 [F,A,CF]2 | [B,FB]4 [DFAd]2 | [A,CEA]2 [B,DFB]2 [D,F,A,D]2 | [A,CEA]4 [B,DFB]2 | %485
 [A,CEA]4 [G,B,DG]2 | [F,A,CF]2 [G,B,DG]2 [C,E,G,C]2 | [D,F,A,D]6 | z2 ((d'2 d2) | %489
 (([G,B,DG]4 ([F,A,CF]2)) | z2) (d'2 d2) | (([A,CEA]2 [B,DFB]2) ([D,F,A,D]2) | z2) (d'2 d2) | %493
 (([A,CEA]4 [G,B,DG]2)) | z2 (d'2 d2) | [D,F,A,D]6) |!p!"_3 Cordes" ([F_Acf]4!<(! [_EGB_e]2 | %497
 [D=FAd]4 [C_EGc]2 | [=B,^D^F=B]4 [C_EGc]2 | [D=FAd]2 [_EG=B_e]2 [CEGc]2)!<)! | %500
!mf! ([_Ac_e_a]4!<(! [G_Bdg]2 | [F_Acf]4 [_EAc_e]2 | [D^F=Ad]4 [_EGB_e]2 | %503
 [F_Acf]2 [G=Bdg]2 [_EG_B_e]2)!<)! |!ff! (!>![_df_a_d']4 [c=egc']2 | %505
 [=B^d^f=b]2 [cegc']2 [Gceg]2) |"_poco dim." (!>![_B_d=f_b]4 [_Ac_e_a]2 | %507
 [G=B=dg]2 [_Ac_e_a]2)!f! !>![_EA_ce]2- | [EAce]2 [_DF_A_d]2 [B,DFB]2 | %509
[K:bass]!mf!"_soutenu" (!tenuto![F,_A,_DF]4!>(! [A,_C_F_A]2) | (!tenuto![G,B,_E]4 [F,_A,_D]2) | %511
 (!tenuto![=E,G,C]4 [_G,_C_E]2)!>)! |[K:treble] [B,DFB]4 [A,CEA]2 | [G,B,DG]4 [F,A,CF]2 | %514
 [B,FB]4 [DFAd]2 | [A,CEA]2 [B,DFB]2 [D,F,A,D]2 | [A,CEA]4 [B,DFB]2 | [A,CEA]4 [G,B,DG]2 | %518
[K:bass] [F,A,CF]2 [G,B,DG]2 [C,E,G,C]2 | [D,F,A,D]6 ||[K:G][K:treble]!pp!{d'e'} d'2 (c'd') d'2 | %521
 (g3 a b2 | a2{ga} ge f2 | g4) (a2 |{c'd'} c'3 b a2 | e'2 d'e' b2) | %526
 (!tenuto!.[^cfa]2 !tenuto!.[Bgb]2 !tenuto!.[Acg]2) | !tenuto![B^df]6 ||{f^g} f2 (ef) f2 | %529
 (!tenuto!^g3 e ^d2 | ^c2 ^d2 e2) | (fe f2) !tenuto!^a2 | (!tenuto!^g3 e ^d2 | ^c2 ^d2 e2) | %534
 (f3!<(! ^g ^a2 | ^a2 b2 ^c'2)!<)! |!mp! (^a3 b ^g2) | f2 (!>!^c2 ^d2) | (^a3 b^gf | %539
 ^c2) (!>!^d2 d2) | (^a3!<(! ^g a2 | !tenuto![^dfb]2 !tenuto![^a^d']2!<)!!>(! !tenuto![ff']2 | %542
 ^a3 b ^g2 | f6)!>)! |!p!"_expressif"{!tenuto!=e'f'} !tenuto!e'2 (!tenuto!d'e') !tenuto!e'2 | %545
 (!tenuto!a3 c' b2 | a2 f2 ^g2) |!>(! (!tenuto!a4 c'2)!>)! | %548
!pp!{!tenuto!d'e'} d'2 (!tenuto!c'd') !tenuto!d'2 | (!tenuto!g3 a b2 | [dfa]2{ga} ge- [ef]2 | %551
 [dg]4)!pp!"^expressif" (A2 |{cd} c3 B A2 | e2 de B2) |!p!"^poco cresc."{^cd} (c3 B A2 | %555
 e d2 e B2) |!mf! (c3 B A2) | (f3 e B2) |!f!{b=c'} (b6- | b2!>(! a2 b2-!>)! |!mf!!>(! b6- | %561
 b2 a2 b2- | b6- | b2 a2 b2- | b2 a2 b2 | !tenuto!.[egc']6 | !tenuto!.[gbe']6 | %567
 !tenuto!.[ac'g']6)!pp!!>)! |!8va(! [b'd'']2 ([g'b'c'']d'') [g'b'd'']2!8va)! |{e'c'} e'4 [gbd']2 | %570
{ge} g4 [GBd]2 |"^Ralentir beaucoup     -     -     -" z6 | z4 (!>![CEG]/(((.[A,CE]) z/))) | %573
"^Très lent" !trill(!T[FA]6- | [FA]6- | !fermata![FA]4 z2 |] %576
[M:2/4][Q:1/4=144]"^Vif"!pp!"^à la mémoire du capitaine Joseph de Marliave""_PIANO"[I:staff +1] .e/"_staccato"[I:staff -1].e/.e/.e/[I:staff +1] .e/[I:staff -1].e/.e/.e/ | %577
[I:staff +1] .e/[I:staff -1].e/.e/.e/[I:staff +1] .e/[I:staff -1].e/.e/.e/ | %578
 .[fgb]/.e/[I:staff +1].[Bd]/.e/[I:staff -1] .[fgb]/.e/[I:staff +1].[Bd]/.e/ | %579
[I:staff -1] .[fgb]/.e/[I:staff +1].[Bd]/.e/[I:staff -1] .[fgb]/.e/[I:staff +1].[Bd]/.e/ | %580
[I:staff -1] !>![fgbd']/e/[I:staff +1]d/[I:staff -1]e/ [fgbd']/e/[fa^c'e']/e/ | %581
 !>![fgbd']/e/[I:staff +1]d/[I:staff -1]e/ [fgbd']/e/[fa^c'e']/e/ | %582
 !>![fgbd']/e/[I:staff +1]d/[I:staff -1]e/ [fgbd']/!<(!e/[fa^c'e']/e/ | %583
 [fgbd']/e/[fa^c'e']/e/ [fgbd']/e/[fac'e']/!<)!e/ | !>![bd'f']/f/f/f/!>(! [d'f']/f/f/f/ | %585
 [d'f']/f/f/f/ [d'f']/f/f/f/!>)! | [bd'f']/f/[d'f'a']/a/ [bd'f']/f/[bd'g']/g/ | %587
 [bd'e']/e/[gbd']/d/ [egb]/B/[gbd']/d/ | [ega]/A/A/A/ [egb]/B/B/B/ | %589
!>(! !>![bd'f']/f/f/f/ [bd'f']/f/f/f/!>)! | [bd'f']/f/[d'f'a']/a/ [bd'f']/f/[bd'g']/g/ | %591
 [bd'e']/e/[gbd']/d/ [egb]/B/[gbd']/d/ | [ega]/A/A/A/ [egb]/B/B/B/ | %593
!>(! !>![bd'f']/f/f/f/ [bd'f']/f/f/f/!>)! |!<(! [bd'f']/f/[d'f'a']/a/ [bd'f']/f/[bd'g']/g/ | %595
 [bd'e']/e/[gbd']/d/ [egb]/B/[gbd']/d/!<)! |!>(! [egb]/B/[cea]/A/ [Ace]/E/[ceg]/G/ | %597
 [Ace]/E/[FBd]/D/ [EGB]/C/[EFA]/C/!>)! | %598
[K:bass]!pp! [A,B,D]/G,/[I:staff +1]E,/[I:staff -1]G,/ [A,B,D]/G,/[^CE]/A,/ | %599
 [A,B,D]/G,/[I:staff +1]E,/[I:staff -1]G,/ [A,B,D]/G,/[^CE]/A,/ | %600
 [A,B,D]/G,/[I:staff +1]E,/[I:staff -1]G,/!<(! [A,B,D]/G,/[^CE]/A,/ | %601
 [DF]/B,/[EG]/B,/ [FA]/^C/[EB]/=C/!<)! | %602
!pp! [A,B,D]/G,/[I:staff +1]E,/[I:staff -1]G,/ [A,B,D]/!<(!G,/[^CE]/A,/ | %603
 [DF]/B,/[EG]/B,/ [FA]/^C/[EB]/=C/!<)! | %604
!p! [CD=F]/_B,/[I:staff +1]G,/[I:staff -1]B,/ [CDF]/B,/[EG]/C/ | %605
 [CD=F]/_B,/[I:staff +1]G,/[I:staff -1]B,/ [CDF]/B,/[EG]/C/ | %606
 [CD=F]/_B,/[I:staff +1]G,/[I:staff -1]B,/ [CDF]/!<(!B,/[EG]/C/ | %607
[K:treble] [=FA]/D/[G_B]/D/ [Ac]/E/[Gd]/_E/!<)! | %608
[K:bass]!p! [CD=F]/_B,/[I:staff +1]G,/[I:staff -1]B,/ [CDF]/!<(!B,/[EG]/C/ | %609
[K:treble] [=FA]/D/[G_B]/D/ [Ac]/E/[Gd]/_E/!<)! |!mp! !>![Ad=f]/=G/D/F/ [Adf]/F/[Bdg]/G/ | %611
 [Gce]/E/C/E/ [GBd]/D/[EGc]/C/ | [Ad=f]/=F/D/F/ [Adf]/F/[Bdg]/G/ | [Gce]/E/[GBd]/D/ [EGc]/C/C/C/ | %614
!mf! !>![Ace]/E/C/E/ [Ace]/E/[^A^c^f]/F/ | [FBd]/D/[F^A^c]/^C/ [DFB]/B,/B,/B,/ | %616
 !tenuto![^E^G^c]/^C/C/C/ !tenuto![B,=EG]/^G,/G,/G,/ | %617
[K:bass]!>(! [^A,^CF]/F,/F,/F,/!>)!!pp![I:staff +1] F,/[I:staff -1]F,/F,/F,/ | %618
[I:staff +1] F,/[I:staff -1]F,/F,/F,/[I:staff +1] F,/[I:staff -1]F,/F,/F,/ | %619
 [^E,=G,B,]/F,/[I:staff +1][B,,D,]/=E,/[I:staff -1] [^E,=G,B,]/F,/[I:staff +1][B,,D,]/=E,/ | %620
!<(! F,,/[I:staff -1]F,/F,/F,/[I:staff +1] F,/[I:staff -1][K:treble]F/F/F/!<)! | %621
!p! [^E=GB]/F/[I:staff +1][B,D]/=E/[I:staff -1] [EGB]/F/[I:staff +1][B,D]/E/ | %622
!<(! F,/[I:staff -1]F/F/F/[I:staff +1] F/[I:staff -1]f/f/f/!<)! | %623
!f! [^e=gb]/f/[I:staff +1][Bd]/=e/[I:staff -1] [^e=gb]/f/[I:staff +1][Bd]/=e/ | %624
!>(![I:staff -1] [^E=GB]/F/[I:staff +1][B,D]/=E/[I:staff -1] [EGB]/F/[I:staff +1][B,D]/E/!>)! | %625
!<(! F,/[I:staff -1]F/F/f/[I:staff +1] F/[I:staff -1]f/f/f'/!<)! | %626
!f!!>(![I:staff +1] !>!f'/[I:staff -1]f/F/F/[K:bass][I:staff +1] F,/[I:staff -1]F/F,/F,/ | %627
[I:staff +1] F,,/[I:staff -1]F,,/F,,/F,,/[I:staff +1] F,,/[I:staff -1]F,,/F,,/F,,/!>)! | %628
!p![I:staff +1] F,,/[I:staff -1][F,,A,,]/[I:staff +1]^C,/[I:staff -1][^C,E,]/[I:staff +1] F,/[I:staff -1][F,A,]/[I:staff +1]^C/[I:staff -1][^CE]/ | %629
[I:staff +1] F,,/[I:staff -1][F,,A,,]/[I:staff +1]^C,/[I:staff -1][^C,E,]/[I:staff +1] ^C/[I:staff -1][K:treble][^CE]/[I:staff +1]F/[I:staff -1][FA]/ | %630
!>(![I:staff +1] F,/[I:staff -1][A,C]/[I:staff +1]^C/[I:staff -1][^CE]/[I:staff +1] C/[I:staff -1][CE]/[I:staff +1]F/[I:staff -1][FA]/ | %631
[I:staff +1] F/[I:staff -1][FA]/[I:staff +1]^c/[I:staff -1][^ce]/[I:staff +1] c/[I:staff -1][ce]/[I:staff +1]f/[I:staff -1][fa]/!>)! | %632
!pp!"^Un peu moins vif" (!tenuto!^c'>b) (!tenuto!c'>b) | (a/g/f)(x>a | a/g/f)(.x.f) | %635
 (!tenuto!^c>B) (!tenuto!c>B) | (A/G/F)(x>A | A/G/F)(.x.F) | %638
[K:bass]!pp!"^soutenu"(!tenuto!x>A,!tenuto!x>A, |!tenuto!x>^C A,/B,/C) |(!tenuto!x>D B,/D/F) | %641
 E (!tenuto!G2 A) |[K:treble]"^Revenez au        -      -      -"(!>!x>A)(!>!x>^c) | %643
(!>!x>e B/d/f) |x>g e/g/b |!f!"^1er Mouvt" [gd']/[de]/[Gd]/[DE]/ [DE]/[Gd]/[de]/[gd']/ | %646
 [gd']/c/[I:staff +1][CEG]/[I:staff -1]c/ [gd']/c/[I:staff +1][CEG]/[I:staff -1]c/ | %647
 !>![gd']/[de]/[Gd]/[DE]/ [DE]/[Gd]/[de]/[gd']/ | %648
 [gd']/c/[I:staff +1][CEG]/[I:staff -1]c/ [gd']/c/[I:staff +1][CEG]/[I:staff -1]c/ | %649
 !>![=fad']/c/A/c/ [fad']/c/[gbe']/d/ |!<(! !>![=fad']/c/A/c/ [fad']/c/[gbe']/d/ | %651
 !>![=fad']/c/A/c/ [fad']/c/[gbe']/d/ | [=fad']/c/[gbe']/c/ [fad']/c/[gbe']/d/!<)! | %653
!ff! [b^f']/f/[I:staff +1][^fb]/B/[I:staff -1] [Bf]/F/[I:staff +1][FB]/B,/ | %654
!>(![I:staff -1] [Bf]/F/[I:staff +1][FB]/B,/[I:staff -1][K:bass] [B,F]/F,/[I:staff +1][F,B,]/B,,/ | %655
[I:staff -1] [B,F]/F,/[I:staff +1][F,B,]/B,,/[I:staff -1] [B,,F,]/F,,/[I:staff +1][F,,B,,]/B,,,/!>)! | %656
!p![I:staff -1] x4 | x4 | x4 |!>(! x4 | x4!>)! | %661
 [F,B,]/D,/[I:staff +1]D,/[I:staff -1]D,/ [F,B,]/D,/[G,C]/_E,/ | %662
 [F,B,]/D,/[I:staff +1]D,/[I:staff -1]D,/ [F,B,]/D,/[G,C]/_E,/ | %663
 [F,B,]/D,/[I:staff +1]D,/[I:staff -1]D,/ [F,B,]/D,/[G,C]/_E,/ | %664
 [F,B,]/D,/[G,C]/_E,/ [=E,A,]/C,/[=F,_B,]/_D,/ | %665
 [=D,G,]/_B,,/[I:staff +1]B,,/[I:staff -1]B,,/ [D,G,]/B,,/[^D,^G,]/=B,,/ | %666
 [=D,G,]/_B,,/[I:staff +1]B,,/[I:staff -1]B,,/ [D,G,]/B,,/[^D,^G,]/=B,,/ | %667
 [=D,G,]/_B,,/[I:staff +1]B,,/[I:staff -1]B,,/ [D,G,]/B,,/[^D,^G,]/=B,,/ | %668
 [=D,=G,]/_B,,/[^D,^G,]/=B,,/ [C,=F,]/_A,,/[^C,^F,]/=A,,/ ||[K:F#] D, x x2 | x3/2[K:treble] x/ x2 | %671
 x4 | x4 | x4 | x4 | x4 | x4 | x4 | x4 | x4 | x4 | x4 | x4 | x4 | x4 | x4 | x4 | x4 | x4 | x4 | %690
 x4 | x4 | x4 | x4 | x2 !courtesy!^e2 | x4 | x2 x/[K:bass] x3/2 | %697
!pp! !>![G,C]/=E,/[I:staff +1]E,/[I:staff -1]E,/ [G,C]/E,/[=A,=D]/=F,/ | %698
 !>![G,C]/=E,/[I:staff +1]E,/[I:staff -1]E,/ [G,C]/E,/[=A,=D]/=F,/ | %699
 !>![G,C]/=E,/[I:staff +1]E,/[I:staff -1]E,/ [G,C]/E,/[=A,=D]/=F,/ | %700
 !>![G,C]/=E,/[=A,=D]/=F,/ [^F,B,]/=D,/[=G,=C]/_E,/ | %701
 !>![=E,=A,]/=C,/[I:staff +1]C,/[I:staff -1]C,/ [E,A,]/C,/[=F,_B,]/_D,/ | %702
 !>![=E,=A,]/=C,/[I:staff +1]C,/[I:staff -1]C,/ [E,A,]/C,/[=F,_B,]/_D,/ | %703
 !>![=E,=A,]/=C,/[I:staff +1]C,/[I:staff -1]C,/ [E,A,]/C,/[=F,_B,]/_D,/ | %704
 [=E,=A,]/=C,/[=F,_B,]/_D,/ [=D,=G,]/_B,,/[^D,^G,]/=B,,/ | !courtesy!^E, x3 | %706
 x3/2[K:treble] x/ x2 | %707
 ([g=bd']/[I:staff +1]d/[G=Bd]/D/[I:staff -1] [GBd]/D/[I:staff +1][G,B,D]/E,/ | %708
[I:staff -1] E,/[B,D]/[I:staff +1][B,D]/G/[I:staff -1] E/[Bd]/[I:staff +1][Bd]/g/ | %709
[I:staff -1] c'4-) | c'2 (d'2 | g2 a2 | c'2 g'2 | f'2 d'2 | c'4 | b4 |!>(! g4- | g2) a2 | (f2 e2 || %719
[K:G] [cdf]/)F/[I:staff +1][CDF]/F,/[I:staff -1][K:bass] F/F,/F,/F,/!>)! |!p!!>(! x4 | x4 | %722
 x4!>)! |!pp! x4 | x4 | x4 | !>!E,/C,/A,,/C,/ E,/C,/F,/D,/ | !>!E,/C,/A,,/C,/ E,/C,/F,/D,/ | %728
 !>!E,/C,/A,,/C,/ E,/C,/F,/D,/ |!<(! E,/C,/F,/D,/ A,/E,/B,/F,/!<)! |!p! E4 | D4- | D2 E2 | A,2 C2 | %734
 E4 |!pp! x4 | x4 | x4 | x4 | !>!G,/E,/^C,/E,/ G,/E,/=A,/F,/ | !>!G,/E,/^C,/E,/ G,/E,/=A,/F,/ | %741
 !>!G,/E,/^C,/E,/ G,/E,/=A,/F,/ |!<(! G,/E,/A,/F,/ ^A,/G,/^C/=A,/!<)! | %743
[K:treble]"^soutenu" (!>!e4[K:bass] |[K:treble] d4-[K:bass] |[K:treble] d2 e2 | G2 ^A2 | %747
 !>!e4)[K:bass] |!p! [^G,DE]/"^staccato""^staccato"E,/[B,=F=G]/=G,/ [G,DE]/E,/[A,^D=F]/=F,/ | %749
 [^F,CD]/D,/[E,_B,C]/C,/ [^C,G,A,]/A,,/[C,B,=C]/=C,/ | %750
 [C,E,G,]/G,,/G,,/G,,/ [^C,G,A,]/A,,/A,,/A,,/ | !>![^G,DE]/E,/E,/E,/ E,/E,/E,/E,/ | %752
 [^G,DE]/E,/[B,=F=G]/=G,/ [G,DE]/E,/[A,^D=F]/=F,/ | %753
 [^F,CD]/D,/[E,_B,C]/C,/ [^C,G,A,]/A,,/[C,B,=C]/=C,/ | %754
 [=F,G,]/B,,/[_A,_B,]/D,/ [F,G,]/B,,/[D,E,]/^G,,/ | D,/_B,,/^E,/^C,/ D,/B,,/=C,/^G,,/ | %756
 !>!E,/C,/A,,/C,/ E,/C,/F,/D,/ | !>!E,/C,/A,,/C,/ E,/C,/F,/D,/ | %758
 !>!E,/C,/A,,/C,/ E,/!<(!C,/F,/D,/ | G,/_E,/^G,/=E,/ A,/=F,/!courtesy!=C/G,/!<)! | %760
!pp! !>!E,/C,/A,,/C,/!<(! E,/C,/F,/D,/ | G,/_E,/^G,/=E,/ A,/=F,/!courtesy!=C/G,/!<)! | %762
!p! !>!E/B,/=G,/B,/ E/B,/F/^D/ | !>!E/B,/=G,/B,/ E/B,/F/^D/ | !>!E/B,/=G,/B,/ E/B,/F/^D/ | %765
[K:treble] G/E/^A/F/ B/G/=d/A/ |[K:bass]!p!"^en dehors" (D3 E | ^C2 B,A,) | (D3 E | ^CB, A,2) | %770
!mf! (G3 A | F2 ED) | (G3 A | FE =C2) |!f! (=A3 B | G2 FE) |[K:treble]"^toujours plus" (d3!f! e | %777
 c2 BA) | (=f3 g | ed c2) | !>!a2 !>!e2 | %781
!ff! !>![^d^fb]/B/[I:staff +1][^D^FB]/B,/[I:staff -1] [^DFB]/B,/[I:staff +1]B,,/_B,,,/ | %782
[I:staff -1] [cea]/[I:staff +1][EA^B]/[I:staff -1][Geg]/[I:staff +1][B,CE=A]/[I:staff -1] [cea]/[I:staff +1][EAB]/[I:staff -1][Geg]/[I:staff +1][B,CE=A]/ | %783
[I:staff -1] !>![^d^fb]/B/[I:staff +1][^D^FB]/B,/[I:staff -1] [^DFB]/B,/[I:staff +1]B,,/_B,,,/ | %784
[I:staff -1] [cea]/[I:staff +1][EA^B]/[I:staff -1][Geg]/[I:staff +1][B,CE=A]/[I:staff -1] [cea]/[I:staff +1][EAB]/[I:staff -1][Geg]/[I:staff +1][B,CE=A]/ | %785
[I:staff -1] !>![^d^fb]/B/[I:staff +1][^D^FB]/B,/[I:staff -1] [^DFB]/B,/[I:staff +1]B,,/_B,,,/ | %786
[I:staff -1] [cea]/[I:staff +1][EA^B]/[I:staff -1][Geg]/[I:staff +1][B,CE=A]/[I:staff -1] [cea]/[I:staff +1][EAB]/[I:staff -1][Geg]/[I:staff +1][B,CE=A]/ | %787
[I:staff -1] [cea]/[I:staff +1][EA^B]/[I:staff -1][Geg]/[I:staff +1][B,CE=A]/[I:staff -1] [cea]/[I:staff +1][EAB]/[I:staff -1][Geg]/[I:staff +1][B,CE=A]/ | %788
[I:staff -1] [B^dfb]/[I:staff +1][B,^DFB]/[I:staff -1][^DF]/[I:staff +1][B,,B,]/[I:staff -1] [Bdfb]/[I:staff +1][B,DFB]/[I:staff -1][c_egc']/[I:staff +1][_D_EGc]/ | %789
[I:staff -1] [B^dfb]/[I:staff +1][B,^DFB]/[I:staff -1][^DF]/[I:staff +1][B,,B,]/[I:staff -1] [Bdfb]/[I:staff +1][B,DFB]/[I:staff -1][c_egc']/[I:staff +1][_D_EGc]/ | %790
[I:staff -1] [B^dfb]/[I:staff +1][B,^DFB]/[I:staff -1][^DF]/[I:staff +1][B,,B,]/!<(![I:staff -1] [Bdfb]/[I:staff +1][B,DFB]/[I:staff -1][c_egc']/[I:staff +1][_D_EGc]/ | %791
[I:staff -1] [B^dfb]/[I:staff +1][B,^DFB]/[I:staff -1][c_egc']/[I:staff +1][_D_EGc]/[I:staff -1] [Bdfb]/[I:staff +1][B,^DFB]/[I:staff -1][=d=fa=d']/!<)![I:staff +1][_E=FA=d]/4[I:staff -1] !fermata!z/4 || %792
[K:E][K:bass]!p!!8vb(!!<(! x4!8vb)! | x4 | x2 x/[K:treble] x3/2 | x4!<)! |!ff! x4 | x4 | x4 | x4 | %800
 x4 | x4 | %802
[K:bass]!ff! !>![G,E]/E,/[I:staff +1][E,,,E,,]/[I:staff -1]=D,/ !>![G,E]/E,/[I:staff +1][E,,,E,,]/[I:staff -1]D,/ | %803
 !>![=C=G]/[=G,A,]/[I:staff +1][E,,,E,,]/[I:staff -1][F,F]/[I:staff +1] [=D,,A,,=D,]/[I:staff -1][E,A,E]/[F,CF]/[I:staff +1][E,,,E,,]/ | %804
[I:staff -1] !>![=DA]/[A,B,]/[I:staff +1][E,,,E,,]/[I:staff -1][=G,=G]/[I:staff +1] [E,,B,,E,]/[I:staff -1][G,DG]/[B,FB]/[I:staff +1][E,,,E,,]/ | %805
[I:staff -1][K:treble] x4 | %806
 !>![^GBe]/E/[I:staff +1][E,,E,]/[I:staff -1]=D/ !>![=c=g]/[=GA]/[I:staff +1][E,,E,]/[I:staff -1]F/ | %807
 [=da]/[AB]/[I:staff +1][E,,E,]/[I:staff -1][=G=g]/[I:staff +1] [E,B,E]/[I:staff -1][Gdg]/[Bfb]/[I:staff +1][E,,E,]/ | %808
[I:staff -1] [=g=d']/[=de]/[I:staff +1][=CEG=c]/[I:staff -1][=cg=c']/[I:staff +1] [A,EA]/[I:staff -1][cgc']/[be']/e/ | %809
 !>![=c'=g']/[=ga]/[=cg]/[=GA]/[I:staff +1] [=F,,=C,]/[I:staff -1][GA]/[cg]/[ga]/ | %810
 [=c'=g']/[I:staff +1][A=c=f]/[I:staff -1][=c=fc']/[I:staff +1][=FA=d]/[I:staff -1] [=gc'g']/[I:staff +1][Acf]/[I:staff -1][cfc']/[I:staff +1][FAd]/ | %811
[I:staff -1] !>![=c'=g']/[=ga]/[=cg]/[=GA]/[I:staff +1] [=F,,=C,]/[I:staff -1][GA]/[cg]/[ga]/ | %812
 [=c'=g']/[I:staff +1][A=c=f]/[I:staff -1][=c=fc']/[I:staff +1][=FA=d]/[I:staff -1] [=gc'g']/[I:staff +1][Acf]/[I:staff -1][cfc']/[I:staff +1][FAd]/ | %813
[I:staff -1] [_b=d'=g']/=f/=d/f/ [bd'g']/f/[=c'e'a']/=g/ | %814
 [_b=d'=g']/=f/=d/f/ [bd'g']/f/[=c'e'a']/=g/ | [_b=d'=g']/=f/=d/f/ [bd'g']/f/[=c'e'a']/=g/ | %816
 [=g_b=d'=g']/[I:staff +1][=F_B=d=f]/[I:staff -1][a=c'e'a']/[I:staff +1][=ce=g]/!<(![I:staff -1] [gbd'g']/[I:staff +1][FBdf]/[I:staff -1][ac'e'a']/[I:staff +1][ce=g]/ | %817
[I:staff -1] [=g_b=d'=g']/[I:staff +1][=F_B=d=f]/[I:staff -1][a=c'e'a']/[I:staff +1][=ce=g]/[I:staff -1] [gbd'g']/[I:staff +1][FBdf]/[I:staff -1][ac'e'a']/[I:staff +1][ce=g]/ | %818
[I:staff -1] [=g_b=d'=g']/[I:staff +1][=F_B=d=f]/[I:staff -1][a=c'e'a']/[I:staff +1][=ce=g]/[I:staff -1] [gbd'g']/[I:staff +1][FBdf]/[I:staff -1][ac'e'a']/[I:staff +1][ce=g]/!<)! | %819
!fff![I:staff -1] [e'g'b']/b/[I:staff +1][egb]/B/[I:staff -1] [EGB]/B,/[K:bass][E,G,B,]/D,/ | %820
 z/ B,,/[E,G,B,]/B,/[K:treble] [EGB]/B/[egb]/b/ | [e'g'b']/b/[egb]/B/ B/[egb]/b/[e'g'b']/ | %822
 [e'g'b']/b/[egb]/B/ B/[egb]/b/[e'g'b']/ | [e'g'b']/b/[egb]/B/ B/[egb]/b/[e'g'b']/ | %824
 [e'g'b']/b/[gb]/b/ [e'g'b']/b/[gb]/b/ | %825
 !>![e'g'b']2 !>![=CG=c]/[I:staff +1]!>![B,,E,B,]/[I:staff -1]!>![G,EG]/[I:staff +1]!>![B,,E,B,]/ | %826
"_Juillet 1914 - Juin, Novembre 1917"[I:staff -1] !>![Geg]4[K:bass] |] %827
V:2
 (.E z/) z3/2 (.E z/) z3/2 | (D/C/G,/A,/C/E/) (D/C/G,/A,/C/E/) | (.E z/) z3/2 (.E z/) z3/2 | %3
 (D/C/G,/A,/C/E/) (D/C/G,/A,/C/E/) |: A3 B3 | A3 B3 | (d3/2G3/2 F3) | (d3/2G3/2 F3) | %8
 (d3/2 G3 F3/2) |[K:bass] (B,/A,/E,/F,/A,/^C/) (B,/A,/E,/F,/A,/C/) | (.B, z/) z3/2 (.B, z/) z3/2 | %11
 (B,/A,/E,/F,/A,/^C/) (B,/A,/E,/F,/A,/C/) | (.B, z/) z3/2 (.B, z/) z3/2 | ^D3/2 =D3 ^C3/2 | %14
 =C3 B,3/2_B,3/2 | A,3- A,3/2^G,3/2 | ^F,3/2=F,3/2E,3/2C3/2 |[K:treble] c3- c3/2B3/2 | %18
 _B3 A3/2_A3/2 | G3- G3/2G3/2 |[K:bass] =F3/2 E3 =B,3/2 | C,/G,/C/G,/C/E/ D/C/A,/F,/E,/D,/ | %22
 C,/G,/C/G,/C/E/ B,,/F,/B,/F,/B,/D/ |[K:treble] (G,/D/G/D/G/B/ A/G/E/^C/B,/A,/) | %24
 (G,/D/G/D/G/B/) (F,/^C/F/C/F/A/) | (D/F/A/B/d/e/) (=C/E/G/A/c/e/) | %26
 (B,/D/F/A/B/d/) (A,/D/F/A/c/d/) | %27
 E,/B,/D/[I:staff -1]G/B/d/[I:staff +1] f/[I:staff -1]g/b/d'/b/g/ | %28
[I:staff +1] (B3/2-[EB]3/2 [A,E]3/2[D,C]3/2) |[K:bass] G,,6 |1 (D/C/G,/A,/C/E/) (D/C/G,/A,/C/E/) | %31
 G,,6 | (D/C/G,/A,/C/E/) (D/C/G,/A,/C/E/) :|2 (.D z/) z3/2 z3 | (.D z/) z3/2 (.D z/) z3/2 | %35
 (.D z/) z3/2 (.D z/) z3/2 || (.D z/) z3/2 (.D z/) z3/2 | x6 | (.D z/) z3/2 (.D z/) z3/2 | x6 | %40
[K:treble] x6 | x6 | x6 | x6 | x6 | x6 | x4 x/[K:bass] x3/2 | (.A, z/) z3/2 z2 x | %48
 (.A, z/) z3/2 (.A, z/) z3/2 | x6 | (.A, z/) z3/2 (.A, z/) z3/2 | x6 | %52
[K:treble] x3[K:bass] x3/2[K:treble] x3/2 | x3[K:bass] x3/2[K:treble] x3/2 |[K:bass] x6 | %55
[K:treble] x3[K:bass] x3/2[K:treble] x3/2 | x3[K:bass] x3/2[K:treble] x3/2 |[K:bass] x6 | %58
 (^G,,,/^D,,/F,,/B,,/[I:staff -1]D,/F,/)[I:staff +1] (D,,/B,,/F,/[I:staff -1]^G,/B,/^C/) | %59
[I:staff +1] (^G,,/^D,/F,/[I:staff -1]B,/D/F/)[I:staff +1] (D,/B,/F/[I:staff -1]^G/B/^c/) | %60
[I:staff +1][K:treble] (^G,3/2^D3/2(^A3/2[=CE_B]3/2)) | (^F,3/2^C3/2(^G3/2[_B,D_A]3/2)) | %62
 (=E,3/2B,3/2 A,3) | [B,F]3/2[G,D]3/2[K:bass] [E,B,]3/2[A,,G,]3/2 | (D,,3 z3) | %65
[K:treble] (D3/2A3/2=f3/2[^G^B^f]3/2) | (=C3/2G3/2_e3/2[^F^A=e]3/2) | _B,3/2=F3/2 _E3 | %68
 [=Fc]3/2[_D_A]3/2[_B,F]3/2[_E,D]3/2 |[K:bass] _A,,3 (_A,,,/_E,,/A,,/C,/E,/A,/) | %70
 (^F,,/^C,/F,/C,/F,/A,/ B,/A,/F,/^D,/C,/B,,/) | (^F,,/^C,/F,/C,/F,/A,/) (^C,/G,/^C/G,/C/^E/) | %72
 (B,,/F,/B,/F,/B,/=D/ E/D/B,/^G,/F,/E,/) | (^C,/G,/^C/G,/C/^E/) (F,/C/F/C/F/^A/) | %74
 (E,/B,/E/B,/E/=G/)[K:treble] (A,/E/A/E/A/^c/) | (D/F/A/B/d/e/) (=C/E/G/A/c/e/) | %76
 B,/^D/F/B/^c/^d/ (A,/D/F/B/c/d/) | (G,/B,/=D/G/A/B/) (=F,/B,/D/G/A/B/) | %78
 (E,/^G,/B,/E/^G/B/) (D,/G,/B,/E/F/B/) | %79
[K:bass] (A,,,/C,,/E,,/=G,,/B,,/D,/) (A,,/C,/E,/[I:staff -1]G,/B,/D/) | %80
[I:staff +1][K:treble] (A,/C/E/[I:staff -1]G/B/d/)[I:staff +1] A/c/e/[I:staff -1]g/b/d'/ | %81
[I:staff +1] f3!8va(! (g'3/2e'3/2 | c'3/2a3/2)!8va)! (g3/2e3/2 | c3/2A3/2) (G3/2E3/2 | %84
 C3/2)[K:bass](G,3/2 E,3/2-E,D,/) | x3 (G,3/2 z/) z | (.A,, z/) z3/2 (.A,, z/) z3/2 | %87
 x3 (G,3/2 z/) z | (.A,, z/) z3/2 (.A,, z/) z3/2 | (E,,3/2B,,3/2G,3/2B,3/2 | G) z/ z3/2 z3 | z6 | %92
!8vb(!!ped! E,,,6- | E,,,3- E,,,3/2-!<(! (5:3:5E,,,/G,,,/A,,,/B,,,/D,,/!8vb)! | x6[K:treble]!<)! | %95
!ped! !///-!!fermata![egb-]3!ped-up! d'3 | !fermata![egb]3/2 z3/2 z3 |][K:G][M:4/4] z8 | z8 | z8 | %100
 z8 | z (!>!A .G) z (!>!BG .E) z | (!>!A.G) z !>!B .G(!>!BGE | D2) (^C4 F2 | B,3) (D =C2 DF | %105
 E2 C2 G,2 A,2) | z (EFD (3EDC B,D | B,3 ^A =A3 ^G | =G2 F2 B) z z (B, | C2 D2 E3 G | F2 G2 A3 c | %111
 E2 DC B,2 CB, | A,2 D2 G,2 E,2 | F,)(!>!G .F) z (!>!AF .D) z | (!>!G.F) z (!>!A .F)(!>!AFD) | %115
 (E2 ^D2 E2 B,2- | B,)(DEB, (3CB,A, B,2) | (C4 G,4) | z2 D,2 E,2 =F,2 | =F2 E2 D2 ^G,2 | %120
 A,2 (A3 G^FE | F2 G2 A2 GB) | A(cBd (3cde fd- | d4 c2 B2 | C)(EDF (3EFG AF | %125
 G)[K:bass](!>!G, F,2) E,(!>!G,.A,)A,, | F,2 z (!>!E, .=D,) z (!>!F,D, | B,,2) x6 | %128
 B,,[K:treble](EFE (3EDC B,D | B,8-) | B,fge (3fed ec | (B8- | B4- BdBA | B3) (G D E2 F | %134
 B) z z2 z4 | z (!>!B, .C) z (!>!A,C .E) z | (!>!B,.C) z (!>!A, .C)(!>!A,CE- | E) (E2 D2) (CB,D | %138
 (3CDE FD E2) (A,2 | B,2 A,G, A,) z (DE | =F2 E2 ^G,4) | CB, E,2 ^F,3 ^G, | A,4 z2 z (C | %143
B,D (3CB,A, G,2 A,B, | C2) (B,2 ^D3 E | C4- C)(B,^C^D | E2 =D2) z (!>!A B) z | %147
 (!>!CE .G) z z (!>!D E2-) | E(!>!B, C2 B,)(!>!E,[K:bass] =F,2-) | %149
 F,(!>!=B,,C,)(!>!G,, A,,3) !>!B,, | E,,4- E,,[K:treble](EDF | (3EFG AF B2 GF | %152
 E)(G,=F,A, (3G,A,B, A,)c | Bd (3cde dc .B2 | z2 z (!>!A .G) z (!>!BG | .E) z (!>!A.G) z (EGA | %156
 B3 c d)(BcA | (3BAG FA !fermata!E2) z2 |][M:6/8][K:bass] [B,^D=G]3 !>![^G,^B,E]3- | %159
 [G,B,E]3 [A,-^C^E]3 | (!tenuto![A,^E^G]2 F,,) ([A,^B,]2 F,,) | %161
 (!tenuto![=G,^A,]2 B,,) ([F,=A,]2 B,,) | [E,,B,,]3 !>![^G,^B,E]3- | [G,B,E]3 [A,-^C^E]3 | %164
 (!tenuto![A,^E^G]2 F,,) ([A,^B,]2 F,,) | (!tenuto![=G,^A,]2 B,,) ([F,=A,]2 B,,) |: %166
 [E,,B,,]3 !>![^G,^B,E]3- | [G,B,E]3[K:treble] (!>![^D^E^G=B]2 ^C) | %168
 (!>![=EF=A^c]2 ^C) (!>![^D^E^GB]2 C) | (!>![=EF=A^c]2 ^C) (!>![EFAc]2 [e^g]) | [^cef]3 [B^de]3 | %171
 [A^ce]3 [^GB^d]3 | !tenuto![EFA]3 !tenuto![^CEF]3 |[K:bass] !tenuto![^G,A,^C]3 !tenuto![E,F,A,]3 | %174
 !tenuto!^G,,3 !tenuto!^D,,3 | !tenuto!^G,,,3 !tenuto!^G,,3 | [^G,B,^D^G]3 [=F,=G,B,E]3- | %177
 x3 =C,,3 | !tenuto![B,=FG]3 [G,_B,_E]3 | [^F,A,^C^F]3 [_E,=F,A,D]3- | x3 _B,,,3 | %181
 !tenuto![A,_E=F]3 [=F,_A,_D]3 | [G,B,E]3 !>![^G,^B,E]3- | [G,B,E]3 [A,-^C^E]3 | %184
 ([A,^E^G]2 F,,) ([A,^B,]2 F,,) | (!tenuto![=G,^A,]2 B,,) ([F,=A,]2 B,,) :| %186
 [E,,B,,]2 z (E,,2 B,, |: G,2 B,, E,,2 B,, | G,2 z[K:treble] !>![Bde]3) | %189
[K:bass] [A,,G,]3[K:treble] !>![Bde]3 |[K:bass] [A,,G,]3 (E,,2 B,, | G,2 B,, E,,2 B,, | %192
 G,2 z[K:treble] !>![Bde]3) |[K:bass] [A,,G,]3 ([D,,G,,]2 [F,,^C,] |1 [B,,,F,,]2) z (E,,2 B,,) ::2 %195
 [B,,,F,,]2[K:treble] x [^DF^A]3 || [^B,^DF]3 [^CE^G]3 | [^A,^C^E]3 [^DF^A]3 | [^G,^DF]3 ^A,3 | %199
 ^D2[K:bass] !>!^D,- D,3- | D,6- | !>!E3 ^D3 | ^B,3 ^G,3 | (F,2 F,,) (E,,2 B,, | G,2 B,, E,,2 B,, | %205
 G,2 z[K:treble] !>![Bde]3) |[K:bass] [A,,G,]3[K:treble] !>![Bde]3 |[K:bass] [A,,G,]3 (E,,2 B,, | %208
 G,2 B,, E,,2 B,, | G,2 z[K:treble] [Bde]3) |2[K:bass] [A,,G,]3 ([D,,A,,]2 [F,,^C,]) :|1 %211
 [A,,G,]3 ([D,A,]2 [B,,^D,]) || [E,B,]3 [^G,^B,E]3- | [G,B,E]3 [A,^C^E]3 | %214
 ([A,^E^G]2 F,,) ([A,^B,]2 F,,) | (!tenuto![=G,^A,]2 B,,) ([F,=A,]2 B,,) | [E,,B,,]3 B,>^DE | %217
 [^B,E]3 G>^E^G | ^E>=EF, (E2 F,) | ([=G,^A,]2 B,,) ([F,=A,]2 B,,) || %220
 [E,,B,,] z z[K:treble] B2 A |: G2 F (!tenuto!F3- | [Ff']2) ^c B2 A | G2 F E2 E | A, z B A2 G | %225
 [FA]2 [DA] [GB]2 [GB] | [B,A]3- [B,A]2 [B,A] | [B,F]2 [B,A] (.B.E.B, |1 .E,) z z z z A :|2 %229
 .E, z z (.e z) z || (.e z) z (.e z) z | (.e z) z (.e z) z | (.e z) A DAd | (a z) z d3 | G3 c2 d | %235
 e2 =f f2 f | g2 g [ce]3 | [^F^c]2 z{!>!fg} (f z) z | (.f z) z{!>!fg} (f z) z | %239
 (.f z) z{!>!fg} (f z) z | (.f z) z{!>!fg} (f z) z | (.f z) z{!>!fg} (fF) z | %242
 (fF) z{!>!fg} (fF) z | (fF) z{!>!fg} (fF) z | (fF) z{!>!fg} (fF) z | f z ^c B2 =A | %246
 G2 F (!tenuto!F3- | [Ff']2) ^c B2 A | G2 F E2 E | A, z B A2 G | [FA]2 [DA] [GB]2 [GB] | %251
 [B,A]3- [B,A]2 [B,A] | [B,F]2 [B,A] .B.E.B, ||[K:bass] E,3 !>![^G,^B,E]3- | [G,B,E]3 [A,-^C^E]3 | %255
 (!tenuto![A,^E^G]2 F,,) ([A,^B,]2 F,,) | (!tenuto![=G,^A,]2 B,,) ([F,=A,]2 B,,) | %257
 [E,,B,,]3 (B,>^DE) | [^B,E]3 G>^E^G | ^E>=EF, (E2 F,) | ([=G,^A,]2 B,,) ([F,=A,]2 B,,) | %261
 [E,,B,,]3 [^G,^B,E]3- | [G,B,E]3[K:treble] (!>![^D^E^GB]2 ^C) | %263
 ([=EG=A^c]2 ^C) (!>![^D^E^GB]2 C) | ([=EG=A^c]2 ^C) ([EGAc]2 [e^g]) | !tenuto![^cef]3 !>![B^de]3 | %266
 !tenuto![A^ce]3 !>![^GB^d]3 | !tenuto![EFA]3 !tenuto![^CEF]3 | %268
[K:bass] !tenuto![^G,A,^C]3 !tenuto![E,F,A,]3 | !tenuto!^G,,3 !tenuto!^D,,3 | ^G,,,3 ^G,,3 | %271
 [^G,B,^D^G]3 [=F,=G,B,E]3- | x3 .=C,,3 | !tenuto![B,=FG]3 [G,_B,_E]3 | %274
 [^F,A,^C^F]3 [_E,=F,A,D]3- | x3 ._B,,,3 | !tenuto![A,_E=F]3 [=F,_A,_D]3 | %277
 [G,B,E]3 !>![^G,^B,E]3- | [G,B,E]3 [A,-^C^E]3 | ([A,^E^G]2 F,,) ([A,^B,]2 F,,) | %280
 (!tenuto![=G,^A,]2 B,,) ([F,=A,]2 B,,) ||[K:E] [E,,B,,] z z z2 .[G,B,] | %282
 [G,B,D]2 .[F,A,CE] [F,A,CE]2 .[C,F,C] | [C,F,C]2 .[A,,E,] z2 .[CFA] | [CFA]3 [F,,C,]2 .[C,A,] | %285
 [E,,B,,]2 z z2 .[G,B,] | [G,B,D]2 .[F,A,CE] [F,A,CE]2 .[C,F,C] | %287
 [C,F,C]2 .[A,,E,A,] !>![A,,E,A,]3- | [A,,E,A,]2 .[F,,C,] [F,,C,]2 .[B,,A,B,] |: %289
 [E,,B,,] z z z2[K:treble] .[B=df] | !>![B=df]3- [Bdf]2 [_B^c=f] | %291
[K:bass] [=D,A,]2 z z2[K:treble] .[A=ce] | !>![A=ce]3- [Ace]2 .[_ABe] | %293
[K:bass] ([=C,-=G,]3 [C,^^F,]2) .[^E,,B,,^G,] | !>![^E,,B,,G,]2 .[C,,G,,] [^E,B,]2 .[F,,C,] | %295
 [=A,C^E]2 .[^B,=EG=B] !tenuto![B,EGB]3- | [B,EGB]>[A,C].^E [A,CE]3 :| %297
[K:G] [E,,B,,]2 z[K:treble] ([^D=F^c]2 A,) | ([^CE^A]2 E,) ([^D=F=c]2 A,) | %299
 ([^CE^A]2 E,) ([^D=F=c]2 A,) | ([E^FB]2 B,) (!>![EFA]2 B,) | ([EGB]2 f) ([^D=Fc]2 A,) | %302
 ([^CE^A]2 E,) ([^D=F=c]2 A,) | ([^CE^A]2 E,) ([^D=F=c]2 A,) | ([E^FB]2 B,) (!>![EFA]2 B,) | %305
 [EG]2 z[K:bass] ([A,,E,^B,]2 [^A,^C]) | (!tenuto![E,=B,=D]2 [^B,^D]) ([A,,E,B,]2 [^A,^C]) | %307
 (!tenuto![E,=B,=D]2 [^B,^D]) ([A,,E,B,]2 [^A,^C]) | ([F,,^C,^G,]2 A,) (^D,,2 [C,F,]) | %309
 ^G,,2 z (^C,,2 [^E,B,=E]) | (!tenuto!^D,,2 [^^F,^C^F]) (^C,,2 [^E,B,=E]) | %311
 (!tenuto!^D,,2 [^^F,^C^F]) (^C,,2 [^E,B,=E]) | (F,,2 ^C) ([B,,A,]2 ^G,) | [E,,B,,]2 z z2 z | %314
 !>![=A,^C^E]6 | (.E,,2 z) !>![=A,=C^E]3- | [A,CE]3 (.E,,2 z) | %317
[K:treble] [GBe]>[I:staff -1]^ab!8va(![I:staff +1] [gbe']>[I:staff -1]^a'b'!8va)! | %318
[I:staff +1] [gb] z z[K:bass] [B,EB]3 | (([E,,B,,]2 z)) z2 z |] %320
[K:C][M:2/4] !>![F,C]2 !>![D,F,A,E]2 | !>![G,,D,]!>![D,A,] !>![C,,G,,E,] z | %322
[K:treble] .[EG].g .[DFG].g | .[CEG].g [B,CEG].g | .[A,CEG].g .[G,A,CE].g | %325
[K:bass] .[E,G,A,].G .[A,,E,G,].G | .[D,E,G,].[A,D] .[G,,D,]2 |[K:treble] !>![DAce]2 !>![DGBde]2 :: %328
 !>![CG_Bd]2 !>![EAce][K:bass]C/D/ | _E/D/C/D/ .E.F | .D.C.D._B, | .D.E/.D/ .C._B, | %332
 .[C,G,].[G,,D,] .[C,,G,,]C/D/ | _E/D/C/D/ .E.F | .[_B,D].[F,C] .[_B,,F,]2 | %335
 [_B,,,F,,]2 .[F,_B,D][K:treble]F/G/ | _A/G/F/G/ .A._B | .^F.E.F.^D | %338
 .[B,^D^F].^G/.F/ .E.[G,^B,D] |[K:bass] .[^C,^G,^C].[^G,,^D,] .[^C,,G,,][K:treble]^G/^A/ | %340
 B/^A/^G/A/ .B.^c | .[^F^A].[^C^G] .[^F,C]2 |[K:bass] !>![^F,,^C,]2 !>![C,^A,^C]2 | %343
 !>![^C,,^G,,]!>![G,,^D,] .[^F,,^C,^F,] z |[K:treble] ^F/^c/e/c/ F/c/^f/B/ | E/B/^d/B/ E/B/=d/B/ | %346
 E/B/d/B/ E/B/e/A/ | D/A/^c/A/ D/A/=c/A/ | D/A/c/A/ D/A/d/G/ | C/G/B/G/ C/G/c/G/ | %350
 B,/G/B/G/ A,/E/G/E/ |[K:bass] !tenuto!G,2 !tenuto!E,2 | !tenuto!D,2 !tenuto!C,2 | %353
 .[A,,D,G,].[A,D] .[G,,D,]2 | !>![F,,C,A,]2 !>![D,F,A,E]2 | !>![G,,D,]!>![D,A,] !>![C,,G,,E,]2 :| %356
[K:Eb][K:treble]!ped! .[C,G,].[Ed]!ped-up! .[Ed].[C,G,] | .[C,G,].[DFc] .[DFc].[C,G,] | %358
 [C,G,][CEB] [CEB][C,G,] | [C,G,][B,DA] [B,DA][C,G,] | [C,G,][EGd] [EGd][C,G,] | %361
 [C,G,][DFc] [DFc][C,G,] | [C,G,][CEB] [CEB][C,G,] | [C,G,][=B,DA] [B,DA]C, | %364
 C,[CEA] [CEA][K:bass]B,, | B,,[CEA] [CEA]A,, | A,,[CEA] [CEA]G,, | %367
 G,,[I:staff -1][CE] [CE][I:staff +1]F,, | F,,[I:staff -1][CE] [CE][I:staff +1]E,, | _D,,F, A,,F, | %370
 _D,[G,B,] F,,G, | C,=A, G,,F, | C,,[K:treble][Ed] [Ed][C,G,] | .[C,G,].[DFc] .[DFc].[C,G,] | %374
 [C,G,][CEB] [CEB][C,G,] | [C,G,][B,DA] [B,DA][C,G,] | [C,G,][EGd] [EGd][K:bass][F,,C,] | %377
 [C,G,][K:treble][DFc] [DFc][K:bass][F,,C,] | [C,G,][K:treble][CEB] [CEB][K:bass][F,,C,] | %379
 [F,,C,][K:treble][CE=A] [CEA][K:bass][F,,C,] | [F,,C,][_A,CE] [A,CE]F,, | F,,[A,CE] [A,CE]F,, | %382
 B,,[F,A,C] B,,[F,A,C] | E,,[G,B,] A,,[G,C] | F,,[E,A,C] D,,^F, | %385
 G,,,[I:staff -1][=B,D] [B,D][I:staff +1]G,, | G,,[I:staff -1][=B,D] [B,D][I:staff +1]G,, | %387
 G,,[I:staff -1][=B,D] [B,D][I:staff +1]G,, ||[K:C] ^D,,[^C,^F,A,] [C,F,A,]D,, | %389
 ^D,,[^C,^F,A,] [C,F,A,]D,, | ^D,,[^C,^F,A,] [C,F,A,]D,, | ^D,,[^C,^^F,^A,] B,,,[^D,=A,^C] | %392
 E,,[^D,^G,B,] ^G,,[^F,B,^D] | ^C,,[^G,B,] ^C,[G,^C] | ^D,,[^A,^D] ^G,,[I:staff -1][^B,^D] | %395
 [^B,^D][I:staff +1]^G,, G,,[I:staff -1][B,D] |[I:staff +1][K:treble] ^G,[=D^F] =E,[B,DF] | %397
 A,[^CE^G] C[EGB] | B,[D^FA] E,[E^GB] | A,[E^G^c] ^C[GB] | %400
 ^F,[I:staff -1][^F^A^c] [FAc][I:staff +1]F, | ^F,[I:staff -1][^F^A^c] [FAc][I:staff +1]F, | %402
 ^F,[I:staff -1][^C^F^A] [CFA][I:staff +1]F, | ^F,[I:staff -1][^C^F^A] [CFA][I:staff +1]F, | %404
 ^F,[I:staff -1][^F=A] [CFA][I:staff +1]F, |[K:bass] B,,[I:staff -1][^FB] [DFB][I:staff +1]B,, | %406
 E,[I:staff -1][GB] [=D^FB][I:staff +1]E, | E,[I:staff -1][DG] [A,^C^F][I:staff +1]E, | %408
 E,,[I:staff -1][G,B,D] [G,B,D][I:staff +1]E,, | E,,[I:staff -1][G,B,D] [G,B,D][I:staff +1]E,, | %410
 E,,[I:staff -1][G,B,D] [G,B,D][I:staff +1]E,, | A,,[I:staff -1][G,B,] [G,B,][I:staff +1]A,, || %412
 !>![D,,A,,=F,]2 !>![D,F,A,E]2 | !>![G,,D,]!>![D,A,] !>![C,,G,,E,] z |[K:treble] .[EG].g .[DFG].g | %415
 .[CEG].g [B,CEG].g | .[A,CEG].g .[G,A,CE].g |[K:bass] .[E,G,A,].G .[A,,E,G,].G | %418
 .[D,E,G,].[A,D] .[G,,D,]2 |[K:treble] !>![DAce]2 !>![DGBde]2 || %420
 !>![CG_Bd]2 !>![EAce][K:bass]C/D/ | _E/D/C/D/ .E.F | .D.C.D._B, | .D.E/.D/ .C._B, | %424
 .[C,G,].[G,,D,] .[C,,G,,]C/D/ | _E/D/C/D/ .E.F | .[_B,D].[F,C] .[_B,,F,]2 | %427
 (!>![_B,,,F,,]2 .[F,_B,D])[K:treble]F/G/ | _A/G/F/G/ .A._B | .^F.E.F.^D | %430
 .[B,^D^F].^G/.F/ .E.[G,^B,D] |[K:bass] .[^C,^G,^C].[^G,,^D,] .[^C,,G,,][K:treble]^G/^A/ | %432
 B/^A/^G/A/ .B.^c | .[^F^A].[^C^G] .[^F,C]2 |[K:bass] !>![^F,,^C,]2 !>![C,^A,^C]2 | %435
 !>![^C,,^G,,]!>![G,,^D,] .[^F,,^C,^F,] z |[K:treble] ^F/^c/e/c/ F/c/^f/B/ | E/B/^d/B/ E/B/=d/B/ | %438
 E/B/d/B/ E/B/e/A/ | D/A/^c/A/ D/A/=c/A/ | D/A/c/A/ D/A/d/G/ | C/G/B/G/ C/G/c/G/ | %442
 B,/G/B/G/ A,/E/G/E/ |[K:bass] !tenuto!G,2 !tenuto!E,2 | !tenuto!D,2 !tenuto!C,2 | %445
 .[A,,D,G,].[A,D] .[G,,D,]2 | !>![F,,C,A,]2 !>![D,F,A,E]2 | !>![G,,D,]!>![D,A,] !>![C,,G,,E,]2 |] %448
[K:G][M:3/4][K:treble] (.G2 .F2 .D2) | (.[CD]2 .[B,D]2 .[A,C]2) |[K:bass] (B,2 A,4) | G,,2 D,4 | %452
 (A,4 C2) | (B,4 D2) | (!tenuto!.[F,^C]2 !tenuto!.[G,B,]2 !tenuto!.A,2) |[K:treble] (B,2 F2 B2) :: %456
[K:bass] [F,B,=D]6 | [E,A,C]6 | [A,D]6 | [F,B,D]4 !tenuto![F,A,^C]2 | [E,A,=C]6 | [A,D]6 | %462
 [F,B,D]6 | [A,^CF]6 | [G,D]6 | F6 | [G,D]6 | F6 | [G,D]6 | %469
[K:treble] !tenuto![G,DG]2 !tenuto![B,FB]2 !tenuto![DGB]2 | [^CFA]4[K:bass][K:treble] [B,EG]2 | %471
 [A,DF]6[K:bass] |[K:treble] [^Gc=f]6 | [Ac=f]6 | (B,2 E4) | (=F2 E2 [_EG]2) | [B,D=FA]6 | %477
 [B,EG]6[K:bass] | D,6[K:treble] |[K:bass] (G,,2 D,2 D2- :|[K:F]"_Sourdine" D2 D,4) | (G,,2 D,4) | %482
 (D2 D,4) | (G,,2 D,4) | (D2 D,4) | (G,,2 D,4) | (D2 D,4) | G,,2 D,2 D2- | %488
[K:treble] ([B,DFB]4 [A,CEA]2 |[K:bass] (G,,2 D,4) |[K:treble] ([B,DFB]4 [DFAd]2) | %491
[K:bass] (G,,2 D,4) |[K:treble] ([A,CEA]4 [B,DFB]2) |[K:bass] (G,,2 D,4) | %494
[K:treble] ([F,A,CF]2 [G,B,DG]2 [C,E,G,C]2) |[K:bass] ((G,,2 D,2) D2)) | ([_A,C]4 [G,B,]2 | %497
 [F,=A,]4 [_E,G,]2 | [^D,^F,]4 [_E,G,]2 | [=F,A,]2 [G,=B,]2 [_E,G,]2) | ([_A,_E]4 [G,D]2 | %501
 [F,C]4 [_E,_B,]2 | !tenuto![D,=A,]4 [_E,_B,]2 | [F,C]2 [G,D]2 [_E,B,]2) | z2 [G,,,G,,]4- | %505
 [G,,,G,,]6 | z2 [G,,,G,,]4- | [G,,,G,,]6 | [E,C]2 [_D,_A,]2 [B,,F,]2 | (G,,,2 G,,4) | (G,2 G,,4) | %511
 (G,,,2 G,,4) | (F,2 D,4) | (G,,2 D,4) | (D2 D,4) | (G,,2 D,4) | (D2 D,4) | (G,,2 D,4) | (D2 D,4) | %519
 G,,2 D,2 D2- ||[K:G][K:treble] ([B,DFB]4 [A,CEA]2 | [G,B,DG]4[K:bass][K:treble] [F,B,DF]2 | %522
 [B,DGB]4 [DFAd]2 | [A,DGA]2 [B,DGB]2 [D,G,B,D]2 | [G,B,DG]4[K:bass][K:treble] [F,B,DF]2 | %525
 [B,DGB]4 [G,B,EG]2) |[K:bass] (!tenuto!.[F,^CF]2 !tenuto!.[G,B,EG]2 !tenuto!.[^C,E,A,C]2) | %527
 !tenuto![^D,F,B,^D]6 || [^A,^DF]6 | [^G,^CE]6 | [^CF]6 | [^A,^DF]4 !tenuto![A,^C^E]2 | [^G,^CE]6 | %533
 [^CF]6 | [^A,^DF]6 | [^C^E^A]6 | [B,F]6 |[K:treble] ^A6 |[K:bass] [B,F]6 | ^A6 | [B,F]6 | %541
[K:treble] !tenuto![B,FB]2 !tenuto![^D^A^d]2 !tenuto![FBd]2 | %542
 [^E^A^c]4[K:bass][K:treble] [^D^GB]2 | [^CF^A]6[K:bass] |[K:treble] !tenuto![=Ac=e]6 | %545
 !tenuto![Ace]6 | ([FA]2- [B,FA]2 [E,=F]2) | (=F2 E2 [_EG]2) |"_Sourdine" [B,D=FA]6 | %549
 [B,EG]6[K:bass] | z2[K:treble] (A2- [DA]2) |[K:bass] (G,,D,B,D,DD,) | (G,,D,A,D,CD,) | %553
 (G,,D,B,D,DD,) |"_3 Cordes" (G,,D,A,D,^CD,) | (G,,D,B,D,DD,) | (F,,^C,A,C,^CC,) | %557
 E,,B,,G,B,,B,B,, | z (C,,(G,,)(E,)(G,)(C) | E6) | (A,,,(E,,)(G,,)(C,)(E,)(G,) | (E2) z2) z2 | %562
 (A,,(E,)(G,)(C)(E)(G) |[K:treble] (c6) | e6 | !tenuto!.[Ac]6 | !tenuto!.[ce]6 | !tenuto!.[eg]6) | %568
!8va(! (.g'2 .e'2 .d'2)!8va)! | (.g2 .e2 .d2) | (.G2 .E2 .D2) | (.G2 .E2 .D2) | %572
[K:bass] (.G,2 .E,2 .D,2) | !trill(!TB,6!ped!!ped-up! | z2"_sans faire\n   viber" [G,,D,]4- | %575
 !fermata![G,,D,]4 z2 |][M:2/4][K:treble] x4 | x4 | x4 | x4 | !>![EB]/z/d/z/[EB]/z/[B,FA]/ z/ | %581
 !>![EB]/z/d/z/[EB]/z/[B,FA]/ z/ | !>![EB]/z/d/z/[EB]/z/[B,FA]/ z/ | %583
 [EB]/z/[B,FA]/z/[EB]/z/[B,FA]/ z/ |!ped! !>![EB]/z/G/z/B/z/d/ z/!ped-up! | e/z/g/z/b/z/d'/ z/ | %586
 f/z/a/z/f/z/g/ z/ | e/z/d/z/B/z/d/ z/ | A/ z/ z B/ z/ z |!ped! !>!f/!ped-up!z/E/z/B/z/d/ z/ | %590
 f/z/a/z/f/z/g/ z/ | e/z/d/z/B/z/d/ z/ | A/ z/ z B/ z/ z |!ped! !>!f/!ped-up!z/E/z/B/z/d/ z/ | %594
 f/z/a/z/f/z/g/ z/ | e/z/d/z/B/z/d/ z/ | [Bf][K:treble] A/z/E/z/G/ z/ | %597
[K:bass] E/z/D/z/[D,A,]/z/C/ z/ | [G,,D,]/z/E,/z/[G,,D,]/z/[D,A,]/ z/ | %599
 [G,,D,]/z/E,/z/[G,,D,]/z/[D,A,]/ z/ | [G,,D,]/z/E,/z/[G,,D,]/z/[D,A,]/ z/ | %601
 [B,,F,]/z/[E,B,]/z/[D,A,]/z/[F,=C]/ z/ | [G,,D,]/z/E,/z/[G,,D,]/z/[D,A,]/ z/ | %603
 [B,,F,]/z/[E,B,]/z/[D,A,]/z/[F,=C]/ z/ | [_B,,=F,]/z/G,/z/[B,,F,]/z/[F,C]/ z/ | %605
 [_B,,=F,]/z/G,/z/[B,,F,]/z/[F,C]/ z/ | [_B,,=F,]/z/G,/z/[B,,F,]/z/[F,C]/ z/ | %607
 [D,A,]/z/[G,D]/z/[=F,C]/z/[A,_E]/ z/ | [_B,,=F,]/z/G,/z/[B,,F,]/z/[F,C]/ z/ | %609
 [D,A,]/z/[G,D]/z/[=F,C]/z/[A,_E]/ z/ |[K:treble] !>![D=F]/ z/ z z G/ z/ | %611
 [CE]/ z/ z [G,D]/z/C/ z/ | !>![D=F]/ z/ z z G/ z/ | [CE]/z/[G,D]/ z/ [C,G,C]/ z/ z | %614
 !>![A,CE]/ z/ z z [^F,^C^F]/ z/ | [B,D]/z/[F,^C]/ z/[K:bass] [B,,F,B,]/ z/ z | %616
 !tenuto![^C,^G,^C]/ z/ z !tenuto![=E,G,]/ z/ z | !tenuto![F,,^C,F,]/ z/ z x2 | x4 | x4 | %620
 x2[K:treble] x2 | x4 | x4 | x4 | x4 | x4 | x2[K:bass] x2 | x4 | x4 | x2[K:treble] x2 | x4 | x4 | %632
 [^cdf]/z/B/ z/ [cdf]/z/B/ z/ | [ABd]/G/[Fd]/ z/ [B=ce]/z/A/ z/ | %634
 [ABd]/G/[Fd]/ z/ [EAc]/z/[F^A^c]/ z/ | [^CDF]/z/B,/ z/ [CDF]/z/B,/ z/ | %636
 [A,B,D]/G,/[F,D]/ z/ [B,CE]/z/A,/ z/ | [A,B,D]/G,/[F,D]/ z/ [E,A,C]/z/[F,^A,^C]/ z/ | %638
[K:bass] (!tenuto![B,,D,]A,,) (!tenuto![B,,D,]A,,) | (!tenuto![D,E,]^C,) ([A,,E,]/B,,/C,) | %640
 (!tenuto![E,F,]D,) (B,,/D,/F,) | E,G,B,^C |[K:treble] (!>![B,D]A,) (!>![DE]^C) | %643
 (!>![DE]D) (B,/D/F) | [AB]G [EG][EG!courtesy!=c] | !>![EGc]4[K:bass] |[K:treble] x4 | %647
 !>![EGc]4[K:bass] |[K:treble] x4 | [=FAd][=F,C] [FAd][CGB] | [=FAd][=F,C] [FAd][CGB] | %651
 [=FAd][=F,C] [FAd][CGB] | [=FAd][=F,C] [FAd][CGB] | x4 | x3[K:bass] x | x4 | %656
!8vb(! B,,,,/!8vb)![I:staff -1]B,,/B,,/B,,/[I:staff +1] B,,/[I:staff -1]B,,/B,,/B,,/ | %657
[I:staff +1] B,,/[I:staff -1]B,,/B,,/B,,/[I:staff +1] B,,/[I:staff -1]B,,/B,,/B,,/ | %658
[I:staff +1] B,,/[I:staff -1]B,,/B,,/B,,/[I:staff +1] B,,/[I:staff -1]B,,/B,,/B,,/ | %659
[I:staff +1] B,,/[I:staff -1]B,,/B,,/B,,/[I:staff +1] B,,/[I:staff -1]B,,/B,,/B,,/ | %660
[I:staff +1] B,,/[I:staff -1]B,,/B,,/B,,/[I:staff +1] B,,/[I:staff -1]B,,/B,,/B,,/ | %661
[I:staff +1] !>![B,,D,]/z/D,/z/[B,,D,]/z/[=F,,_E,]/ z/ | %662
 !>![B,,D,]/z/D,/z/[B,,D,]/z/[=F,,_E,]/ z/ | !>![B,,D,]/z/D,/z/[B,,D,]/z/[=F,,_E,]/ z/ | %664
 [B,,D,]/z/[=F,,_E,]/z/[A,,C,]/z/[_E,,_D,]/ z/ | [G,,_B,,]/z/B,,/z/[G,,B,,]/z/[^C,,=B,,]/ z/ | %666
 [G,,_B,,]/z/B,,/z/[G,,B,,]/z/[^C,,=B,,]/ z/ | [G,,_B,,]/z/B,,/z/[G,,B,,]/z/[^C,,=B,,]/ z/ | %668
 [G,,_B,,]/z/[^C,,=B,,]/z/[=F,,_A,,]/z/[=B,,,=A,,]/ z/ || %669
[K:F#] D,,/[I:staff -1]F,,/[I:staff +1]A,,/[I:staff -1][A,,C,]/[I:staff +1] D,/[I:staff -1][D,F,]/[I:staff +1]A,/[I:staff -1][A,C]/ | %670
[I:staff +1] A,/[I:staff -1][A,C]/[I:staff +1][K:treble]D/[I:staff -1][DF]/[I:staff +1] A/[I:staff -1][Ac]/[I:staff +1]d/[I:staff -1][df]/ | %671
!pp!"_expressif"[I:staff +1] a/[I:staff -1][df]/[I:staff +1]d/[I:staff -1][Ac]/[I:staff +1] A/[I:staff -1][DF]/[I:staff +1]D/[I:staff -1][A,C]/ | %672
[I:staff +1] [D,A,]/[I:staff -1][A,C]/[I:staff +1]D/[I:staff -1][DF]/[I:staff +1] A/[I:staff -1][Ac]/[I:staff +1]d/[I:staff -1][df]/ | %673
[I:staff +1] a/[I:staff -1][df]/[I:staff +1]d/[I:staff -1][Ac]/[I:staff +1] A/[I:staff -1][DF]/[I:staff +1]D/[I:staff -1][A,C]/ | %674
[I:staff +1] [D,A,]/[I:staff -1][A,C]/[I:staff +1]D/[I:staff -1][DF]/[I:staff +1] A/[I:staff -1][Ac]/[I:staff +1]d/[I:staff -1][df]/ | %675
[I:staff +1] d/[I:staff -1][df]/[I:staff +1]d/[I:staff -1][Ac]/[I:staff +1] a/[I:staff -1][Ac]/[I:staff +1]d/[I:staff -1][df]/ | %676
[I:staff +1] a/[I:staff -1][df]/[I:staff +1]d/[I:staff -1][Ac]/[I:staff +1] [DA]/[I:staff -1][Ac]/[I:staff +1]d/[I:staff -1][df]/ | %677
[I:staff +1] g/[I:staff -1][df]/[I:staff +1]d/[I:staff -1][G^B]/[I:staff +1] [DG]/[I:staff -1][GB]/[I:staff +1]d/[I:staff -1][df]/ | %678
[I:staff +1] d/[I:staff -1][df]/[I:staff +1]d/[I:staff -1][G^B]/[I:staff +1] a/[I:staff -1][df]/[I:staff +1]d/[I:staff -1][AB]/ | %679
[I:staff +1] d/[I:staff -1][G^B]/[I:staff +1]G/[I:staff -1][DF]/[I:staff +1] e/[I:staff -1][GB]/[I:staff +1]G/[I:staff -1][EF]/ | %680
[I:staff +1] a/[I:staff -1][df]/[I:staff +1]d/[I:staff -1][Ac]/[I:staff +1] [DA]/[I:staff -1][Ac]/[I:staff +1]d/[I:staff -1][df]/ | %681
[I:staff +1] g/[I:staff -1][df]/[I:staff +1]d/[I:staff -1][G^B]/[I:staff +1] [DG]/[I:staff -1][GB]/[I:staff +1]d/[I:staff -1][df]/ | %682
[I:staff +1] d/[I:staff -1][df]/[I:staff +1]d/[I:staff -1][G^B]/[I:staff +1] a/[I:staff -1][df]/[I:staff +1]d/[I:staff -1][AB]/ | %683
[I:staff +1] d/[I:staff -1][G^B]/[I:staff +1]G/[I:staff -1][DF]/[I:staff +1] e/[I:staff -1][GB]/[I:staff +1]G/[I:staff -1][EF]/ | %684
[I:staff +1] g/[I:staff -1][c=e]/[I:staff +1][CG]/[I:staff -1][GB]/[I:staff +1] d'/[I:staff -1][gb]/[I:staff +1]g/[I:staff -1][de]/ | %685
[I:staff +1] c'/[I:staff -1][gb]/[I:staff +1]g/[I:staff -1][c=e]/[I:staff +1] a/[I:staff -1][eg]/[I:staff +1]=e/[I:staff -1][Ac]/ | %686
[I:staff +1] g/[I:staff -1][c=e]/[I:staff +1]c/[I:staff -1][GB]/[I:staff +1] [CG]/[I:staff -1][GB]/[I:staff +1]c/[I:staff -1][ce]/ | %687
[I:staff +1] f/[I:staff -1][c=e]/[I:staff +1]c/[I:staff -1][FB]/[I:staff +1] [CF]/[I:staff -1][FB]/[I:staff +1]c/[I:staff -1][ce]/ | %688
[I:staff +1] g/[I:staff -1][c=e]/[I:staff +1][CG]/[I:staff -1][GB]/[I:staff +1] d'/[I:staff -1][gb]/[I:staff +1]g/[I:staff -1][de]/ | %689
[I:staff +1] c'/[I:staff -1][gb]/[I:staff +1]g/[I:staff -1][c=e]/[I:staff +1] a/[I:staff -1][eg]/[I:staff +1]=e/[I:staff -1][Ac]/ | %690
[I:staff +1] g/[I:staff -1][c=e]/[I:staff +1]c/[I:staff -1][GB]/[I:staff +1] [CG]/[I:staff -1][GB]/[I:staff +1]c/[I:staff -1][ce]/ | %691
[I:staff +1] f/[I:staff -1][c=e]/[I:staff +1]c/[I:staff -1][FB]/[I:staff +1] [CF]/[I:staff -1][FB]/[I:staff +1]c/[I:staff -1][ce]/ | %692
!>(![I:staff +1] d/[I:staff -1][FA]/[I:staff +1]F/[I:staff -1][DF]/[I:staff +1] [B,D]/[I:staff -1][DF]/[I:staff +1]F/[I:staff -1][FA]/ | %693
[I:staff +1] A/[I:staff -1][FA]/[I:staff +1]F/[I:staff -1][DF]/[I:staff +1] [B,D]/[I:staff -1][DF]/[I:staff +1]F/[I:staff -1][FA]/ | %694
[I:staff +1] A/[I:staff -1][FA]/[I:staff +1]F/[I:staff -1][DF]/ [G,D]/[I:staff +1]F/[I:staff -1]F/[FA]/ | %695
[I:staff +1] (c/[I:staff -1]([FA]/)[I:staff +1]F/[I:staff -1][DF]/)[I:staff +1] [G,D]/[I:staff -1]F/[I:staff +1]F/[I:staff -1][FA]/!>)! | %696
[I:staff +1] (c/[I:staff -1][=EG]/)[I:staff +1]G/[I:staff -1][CE]/[I:staff +1] =E/[I:staff -1][G,C]/[I:staff +1][K:bass]G,/[I:staff -1][=E,G,]/ | %697
[I:staff +1] !>![B,,=D,]/z/E,/z/[B,,D,]/z/[=F,,_E,]/ z/ | %698
 !>![B,,=D,]/z/E,/z/[B,,D,]/z/[=F,,_E,]/ z/ | !>![B,,=D,]/z/E,/z/[B,,D,]/z/[=F,,_E,]/ z/ | %700
 [C,=E,]/z/[F,,_E,]/z/[B,,=D,]/z/[_E,,_B,,]/ z/ | !>![=A,,=C,]/z/C,/z/[A,,C,]/z/[_D,,_C,]/ z/ | %702
 !>![=A,,=C,]/z/C,/z/[A,,C,]/z/[_D,,_C,]/ z/ | !>![=A,,=C,]/z/C,/z/[A,,C,]/z/[_D,,_C,]/ z/ | %704
 [=A,,=C,]/z/[_D,,_C,]/z/[=G,,_B,,]/z/[=B,,,A,,]/ z/ | %705
 E,,/[I:staff -1]G,,/[I:staff +1]^B,,/[I:staff -1][^B,,D,]/[I:staff +1] E,/[I:staff -1][E,G,]/[I:staff +1]^B,/[I:staff -1][^B,D]/ | %706
[I:staff +1] ^B,/[I:staff -1][^B,D]/[I:staff +1][K:treble]E/[I:staff -1][EG]/[I:staff +1] ^B/[I:staff -1][^Bd]/[I:staff +1]e/[I:staff -1][eg]/ | %707
[I:staff +1] x4 | x4 | x4 | x4 | x4 | x4 | x4 | x4 | x4 | x4 | x4 | x4 ||[K:G] x4 | %720
[K:bass]"_Sourdine" .F,,/"^staccato"[I:staff -1].F,,/.F,,/.F,,/[I:staff +1] .F,,/[I:staff -1].F,,/.F,,/.F,,/ | %721
[I:staff +1] .F,,/[I:staff -1].F,,/.F,,/.F,,/[I:staff +1] .F,,/[I:staff -1].F,,/.F,,/.F,,/ | %722
[I:staff +1] .F,,/[I:staff -1].F,,/.[C,D,]/.F,,/[I:staff +1] .F,,/[I:staff -1].F,,/.[C,D,]/.F,,/ | %723
[I:staff +1] .F,,/[I:staff -1].F,,/.[C,D,]/.F,,/[I:staff +1] .F,,/[I:staff -1].F,,/.[C,D,]/.F,,/ | %724
[I:staff +1] .^G,,/[I:staff -1].[F,,C,D,]/[I:staff +1].D,,/[I:staff -1].[E,,C,D,]/[I:staff +1] .G,,/[I:staff -1].[F,,C,D,]/[I:staff +1].D,,/[I:staff -1].[E,,C,D,]/ | %725
[I:staff +1] .^G,,/[I:staff -1].[F,,C,D,]/[I:staff +1].D,,/[I:staff -1].[E,,C,D,]/[I:staff +1] .G,,/[I:staff -1].[F,,C,D,]/[I:staff +1].D,,/[I:staff -1].[E,,C,D,]/ | %726
[I:staff +1] !>![F,,A,,C,]/ z/ z [F,,A,,C,]/z/[B,,D,]/ z/ | %727
 !>![F,,A,,C,]/ z/ z [F,,A,,C,]/z/[B,,D,]/ z/ | !>![F,,A,,C,]/ z/ z [F,,A,,C,]/z/[B,,D,]/ z/ | %729
 [F,,A,,C,]/z/[B,,D,]/ z/ [C,E,]/z/[D,F,]/ z/ | x4 | x4 | x4 | x4 | x4 | %735
 .F,,/"^staccato"[I:staff -1].F,,/.[^A,,^C,]/.F,,/[I:staff +1] .F,,/[I:staff -1].F,,/.[A,,C,]/.F,,/ | %736
[I:staff +1] .F,,/[I:staff -1].F,,/.[^A,,^C,]/.F,,/[I:staff +1] .F,,/[I:staff -1].F,,/.[A,,C,]/.F,,/ | %737
[I:staff +1] .G,,/[I:staff -1].[F,,^A,,^C,]/[I:staff +1].D,,/[I:staff -1].[E,,A,,C,]/[I:staff +1] .G,,/[I:staff -1].[F,,A,,C,]/[I:staff +1].D,,/[I:staff -1].[E,,A,,C,]/ | %738
[I:staff +1] .G,,/[I:staff -1].[F,,^A,,^C,]/[I:staff +1].D,,/[I:staff -1].[E,,A,,C,]/[I:staff +1] .G,,/[I:staff -1].[F,,A,,C,]/[I:staff +1].D,,/[I:staff -1].[E,,A,,C,]/ | %739
[I:staff +1] !>![F,,^A,,E,]/ z/ z [F,,A,,E,]/z/[^D,F,]/ z/ | %740
 !>![F,,^A,,E,]/ z/ z [F,,A,,E,]/z/[^D,F,]/ z/ | !>![F,,^A,,E,]/ z/ z [F,,A,,E,]/z/[^D,F,]/ z/ | %742
 [F,,^A,,E,]/z/[^D,F,]/ z/ [E,G,]/z/[F,=A,]/ z/ |[K:treble] x3[K:bass] x | %744
 x[K:treble] x2[K:bass] z | x[K:treble] x3 | x[K:bass] x2[K:treble] x | x3[K:bass] x | %748
"^staccato" E,/z/G,/z/E,/z/=F,/ z/ | D,/z/C,/z/A,,/z/=C,/ z/ | _B,,/ z/ z A,,/ z/ z | %751
 !>!E,/z/B,,/z/E,,/z/B,,/ z/ | E,/z/G,/z/E,/z/=F,/ z/ | D,/z/C,/z/A,,/z/=C,/ z/ | %754
 G,,/z/_B,,/z/G,,/z/E,,/ z/ | =F,,/z/^G,,/z/F,,/z/=E,,/ z/ | %756
 !>![F,,C,]/ z/ z [F,,C,]/z/[B,,D,]/ z/ | !>![F,,C,]/ z/ z [F,,C,]/z/[B,,D,]/ z/ | %758
 !>![F,,C,]/ z/ z [F,,C,]/z/[B,,D,]/ z/ | [C,_E,]/z/[^C,=E,]/z/[D,=F,]/z/[^D,^G,]/ z/ | %760
 !>![F,,C,]/ z/ z [F,,C,]/z/[B,,D,]/ z/ | [C,_E,]/z/[^C,=E,]/z/[D,=F,]/z/[^D,^G,]/ z/ | %762
 !>![=D,G,=B,]/z/!courtesy!=D,,/ z/ [D,G,B,]/z/[^A,^D]/ z/ | %763
 !>![D,G,B,]/z/D,,/ z/ [D,G,B,]/z/[^A,^D]/ z/ | !>![D,G,B,]/z/D,,/ z/ [D,G,B,]/z/[^A,^D]/ z/ | %765
[K:treble] [B,E]/z/[^D^F]/z/[EG]/z/[F^A]/ z/ |[K:bass] x2 z E,/ z/ | x2 B,,/z/A,,/ z/ | %768
 x2 z E,/ z/ | ^C,/z/B,,/ z/ x2 | x2 z [E,A,]/ z/ | %771
"^en augmentant" x2"^peu à peu" [B,,E,]/z/[^A,,C,]/ z/ | x2 z [E,A,]/ z/ | %773
 [^C,F,]/z/[B,,E,]/ z/ z x |"^plus" x2 z [F,B,]/ z/ | [D,G,]/ z/ x [D,F,]/z/[B,,E,]/ z/ | %776
 [=F,A,D]/ z/ x z [^G,B,E]/ z/ | [E,=G,C]/ z/ x [D,^F,B,]/z/[C,E,A,]/ z/ | %778
 [A,D=F]/ z/ x z [B,DG]/ z/ | [^G,B,E]/z/[=F,A,D]/ z/ [E,=G,C]/ z/ x |[K:treble] x4 | %781
 x3[K:bass] x |[K:treble] x4 | x3[K:bass] x |[K:treble] x4 | x3[K:bass] x |[K:treble] x4 | x4 | %788
 x3/2[K:bass] x/[K:treble] x2 | x3/2[K:bass] x/[K:treble] x2 | x3/2[K:bass] x/[K:treble] x2 | %791
 x7/2 x/4 !fermata!z/4 || %792
[K:E][K:bass]!8vb(! [B,,,,B,,,]/[I:staff -1][^^C,,F,,]/[I:staff +1][D,,,D,,]/[I:staff -1][^E,,A,,]/[I:staff +1] [F,,,F,,]/[I:staff -1][G,,^B,,]/[I:staff +1][A,,,A,,]/[I:staff -1][^A,,D,]/!8vb)! | %793
[I:staff +1] [B,,,B,,]/[I:staff -1][^^C,F,]/[I:staff +1][D,,D,]/[I:staff -1][^E,A,]/[I:staff +1] [F,,F,]/[I:staff -1][G,^B,]/[I:staff +1][A,,A,]/[I:staff -1][^A,D]/ | %794
[I:staff +1] [B,,B,]/[I:staff -1][^^CF]/[I:staff +1][D,D]/[I:staff -1][^EA]/[I:staff +1][K:treble] [F,F]/[I:staff -1][G^B]/[I:staff +1][A,A]/[I:staff -1][^Ad]/ | %795
[I:staff +1] [B,B]/[I:staff -1][^^cf]/[I:staff +1][Dd]/[I:staff -1][^ea]/[I:staff +1] [B,FB]/[I:staff -1][^cfc']/[I:staff +1][^^C=A^^c]/[I:staff -1][dad']/ | %796
[I:staff +1] !>![FGBf]/[I:staff -1][fgbf']/[I:staff +1][E,B,]/[I:staff -1][egbe']/[I:staff +1] !>![FGBf]/[I:staff -1][fgbf']/[I:staff +1][EGBe]/[I:staff -1][egbe']/ | %797
[I:staff +1][K:treble] [=DEG=d]/[I:staff -1][=cg=c']/[Bgb]/[I:staff +1][B,EGB]/ !>![E=FAe]/[I:staff -1][e=fae']/[I:staff +1][E,=F,A,D]/[I:staff -1][=dfa=d']/ | %798
[I:staff +1] !>![E=FAe]/[I:staff -1][=d=fa=d']/[=Gdf=g]/[I:staff +1][=G,F=G]/ [A,=DFA]/[I:staff -1][Adfa]/[I:staff +1][B,^D^FB]/[I:staff -1][B^d^fb]/ | %799
[I:staff +1][K:bass] !>![F,G,B,F]/[I:staff -1][FGBf]/[I:staff +1][E,,B,,]/[I:staff -1][EGBe]/[I:staff +1] !>![F,G,B,F]/[I:staff -1][FGBf]/[I:staff +1][E,G,B,E]/[I:staff -1][EGBe]/ | %800
[I:staff +1] [=D,E,G,=D]/[I:staff -1][=CG=c]/[I:staff +1][B,,E,G,B,]/[I:staff -1][B,GB]/[I:staff +1] !>![E,=F,A,E]/[I:staff -1][E=FAe]/[I:staff +1][E,,=F,,A,,D,]/[I:staff -1][=DFA=d]/ | %801
[I:staff +1] [E,=F,A,E]/[I:staff -1][=D=FA=d]/[=G,DF=G]/[I:staff +1][=G,,F,=G,]/ [A,,=D,F,A,]/[I:staff -1][A,DFA]/[I:staff +1][B,,^D,^F,B,]/[I:staff -1][B,^D^FB]/ | %802
[I:staff +1] !>![E,,B,,E,] x !>![E,,B,,E,] z | !>![=G,,=C,=G,] x x2 | !>![A,,=D,A,] x3 | %805
 [A,,E,A,]/[I:staff -1][A,EA]/[I:staff +1][=C,=G,=C]/[I:staff -1][=C=G=c]/[I:staff +1] [E,,,E,,]/[I:staff -1][CEG]/[I:staff +1][=D,F,A,=D]/[I:staff -1][=DFA=d]/ | %806
[I:staff +1] !>![E,B,E] x !>![=G,=C=G] x | [A,=DA] x3 |[K:treble] [=DE=G=d] x x [=G,=FB] | %809
 [A=c=g]2[K:bass] x2 |[K:treble] x4 | [A=c=g]2[K:bass] x2 |[K:treble] x4 | %813
 [_B=d=g][K:bass][_B,,_B,][K:treble] [Bdg][=F=ce] | %814
 [_B=d=g][K:bass][_B,,_B,][K:treble] [Bdg][=F=ce] | %815
 [_B=d=g][K:bass][_B,,_B,][K:treble] [Bdg][=F=ce] | x4 | x4 | x4 | x2 z2 | %820
[K:bass] !>![E,,,E,,]!>![B,,,B,,] !>![E,,E,]!>![G,,G,] | %821
 !>![B,,,B,,]!>![E,,E,] !>![G,,G,]!>![B,,B,] | !>![E,,E,]!>![B,,B,] !>![E,E]!>![G,G] | %823
 !>![B,,B,]!>![E,E][K:treble] !>![G,G]!>![B,B] | !>![E,E]!>![B,B] !>![Ee]!>!B | %825
 !>![eg]2[K:bass] z2 | !>![G,B,E]4 |] %827
V:3
 x6 | x6 | x6 | x6 |: (G3 F3 | G3 D3) | E3 B,/^C/E/F/A/B/ | E3 B,/^C/E/F/A/B/ | (E3 D3/2^C3/2) | %9
[K:bass] x6 | x6 | x6 | x6 | (B,3/2^A,3/2=A,3/2^G,3/2 | =G,3/2F,3/2=F,3/2E,3/2) | %15
 (=F,3/2E,3/2B,,3/2E,3/2 | A,,3 A,3/2E3/2) |[K:treble] (A3/2^G3/2=G3/2F3/2 | =F3/2E3/2_E3/2D3/2) | %19
 _E3/2D3/2A,3/2D3/2 |[K:bass] G,3/2C3/2=F,3/2G,3/2 | x6 | x6 |[K:treble] x6 | x6 | x6 | x6 | x6 | %28
 x6 |[K:bass] x6 |1 x6 | x6 | x6 :|2 G,6 | G,6- | G,6 || [C,G,]6 | .=F,, z/ z3/2 .F,, z/ z3/2 | %38
 [C,G,]6 | .=F,, z/ z3/2 .F,, z/ z3/2 |[K:treble] x6 | x6 | x6 | x6 | x6 | x6 | x9/2[K:bass] x3/2 | %47
 x6 | x6 | .G,, z/ z3/2 .=F,, z/ z3/2 | x6 | (.!courtesy!=C,, z/) z3/2 (.C,, z/) z3/2 | %52
[K:treble] x3[K:bass] x3/2[K:treble] x3/2 | x3[K:bass] x3/2[K:treble] x3/2 |[K:bass] x6 | %55
[K:treble] x3[K:bass] x3/2[K:treble] x3/2 | x3[K:bass] x3/2[K:treble] x3/2 |[K:bass] x6 | x6 | x6 | %60
[K:treble] x3/2 ^D3 x3/2 | x3/2 C3 x3/2 | x3/2[I:staff -1] G3/2[I:staff +1]F3/2E3/2 | %63
 x3[K:bass] x3 | x6 |[K:treble] x3/2 A3 x3/2 | x3/2 G3 x3/2 | x6 | x6 |[K:bass] x6 | x6 | x6 | x6 | %73
 x6 | x3[K:treble] x3 | x6 | x6 | x6 | x6 |[K:bass] x6 |[K:treble] x6 | x3!8va(! a3 | %82
 a3!8va)! A3- | A3 A,3- | A,3/2[K:bass] (A,,3 B,,3/2) | (E,,3/2B,,3/2G,3/2B,,3/2) | x6 | %87
 (E,,3/2B,,3/2G,3/2B,,3/2) | x6 | x6 | x6 | x6 |!8vb(! x6 | x6!8vb)! | x9/2[K:treble] x3/2 | x6 | %96
 x6 |][K:G][M:4/4] x8 | x8 | x8 | x8 | x8 | x8 | x8 | x8 | x8 | x8 | x8 | x8 | x8 | x8 | x8 | x8 | %113
 x8 | x8 | x8 | x8 | x8 | x8 | x8 | x8 | x8 | x8 | x8 | x8 | x[K:bass] x7 | B,,8- | B,,8- | %128
 x[K:treble] x7 | x8 | x8 | x8 | x8 | x8 | x8 | x8 | x8 | x8 | x8 | x8 | x8 | x8 | x8 | x8 | x8 | %145
 x8 | x8 | x8 | x6[K:bass] x2 | x8 | x5[K:treble] x3 | x8 | x8 | x8 | x8 | x8 | x8 | x8 |] %158
[M:6/8][K:bass] x6 | [A,,E,]6 | x6 | x6 | x6 | !tenuto![A,,E,]6 | x6 | x6 |: x6 | %167
 !tenuto![A,,E,]6[K:treble] | x6 | x6 | x6 | x6 | x6 |[K:bass] x6 | x6 | x6 | x6 | =G,,3 x3 | x6 | %179
 x6 | =F,,3 x3 | x6 | x6 | [A,,E,]6 | x6 | x6 :| x6 |: x6 | x3[K:treble] x3 | %189
[K:bass] x3[K:treble] x3 |[K:bass] x6 | x6 | x3[K:treble] x3 |[K:bass] x6 |1 x6 ::2 %195
 x2[K:treble] F,- F,3- || F,6- | F,2 F,- F,3 | x6 | x2[K:bass] x4 | x6 | D,2 ^D,- D,3- | D,3 ^C,3 | %203
 x6 | x6 | x3[K:treble] x3 |[K:bass] x3[K:treble] x3 |[K:bass] x6 | x6 | x3[K:treble] x3 |2 %210
[K:bass] x6 :|1 x6 || x6 | [A,,E,]6 | x6 | x6 | x6 | ^G3- A,3 | x6 | x6 || x3[K:treble] x3 |: x6 | %222
 x6 | x6 | x6 | x6 | x6 | x6 |1 x6 :|2 x6 || x6 | x6 | x6 | x6 | x6 | x6 | x6 | x6 | x6 | x6 | x6 | %241
 x6 | x6 | x6 | x6 | x6 | x6 | x6 | x6 | x6 | x6 | x6 | x6 ||[K:bass] x6 | !tenuto![A,,E,]6 | x6 | %256
 x6 | x6 | ^G3- A,3 | x6 | x6 | x6 | [^C,,^G,,]3[K:treble] x3 | x6 | x6 | x6 | x6 | x6 | %268
[K:bass] x6 | x6 | x6 | x6 | .=G,,3 x3 | x6 | x6 | .=F,,3 x3 | x6 | x6 | [A,,E,]6 | x6 | x6 || %281
[K:E] x6 | x6 | x3 !>![A,,E,]3- | [A,,E,]2 .[F,,C,] x3 | x6 | x6 | x6 | x6 |: x5[K:treble] x | %290
 z2 .[A,EB] [A,EB]3 |[K:bass] x5[K:treble] x | z2 .[=G,=DA] !>![G,DA]3 |[K:bass] x6 | x6 | %295
 x3 z2 .[B,,,B,,] | (([B,,,B,,]3 z2)) .[B,,,B,,] :|[K:G] x3[K:treble] x3 | x6 | x6 | x6 | x6 | x6 | %303
 x6 | x6 | x3[K:bass] x3 | x6 | x6 | x6 | x6 | x6 | x6 | x6 | x6 | z2 z (.B,,2 z) | x6 | %316
 (.B,,2 z) x3 |[K:treble] x3!8va(! x3!8va)! | x3[K:bass] x3 | x6 |][K:C][M:2/4] x4 | x4 | %322
[K:treble] x4 | x4 | x4 |[K:bass] x4 | x4 |[K:treble] x4 :: x3[K:bass] x | x4 | x4 | [G,=B,]2 x2 | %332
 x4 | x4 | x4 | x3[K:treble] x | x4 | x4 | x4 |[K:bass] x3[K:treble] x | x4 | x4 |[K:bass] x4 | %343
 x4 |[K:treble] x4 | x4 | x4 | x4 | x4 | x4 | B,2 A,2 |[K:bass] G,/A,/E/A,/ E,/G,/C/G,/ | %352
 D,/E,/G,/E,/ C,/E,/G,/E,/ | x4 | x4 | x4 :|[K:Eb][K:treble] x4 | x4 | x4 | x4 | x4 | x4 | x4 | %363
 x4 | x3[K:bass] x | x4 | x4 | x4 | x4 | x4 | x4 | x4 | x[K:treble] x3 | x4 | x4 | x4 | %376
 x3[K:bass] x | x[K:treble] x2[K:bass] x | x[K:treble] x2[K:bass] x | x[K:treble] x2[K:bass] x | %380
 x4 | x4 | x4 | x4 | x4 | x4 | x4 | x4 ||[K:C] x4 | x4 | x4 | x4 | x4 | x4 | x4 | x4 | %396
[K:treble] x4 | x4 | x4 | x4 | x4 | x4 | x4 | x4 | x4 |[K:bass] x4 | x4 | x4 | x4 | x4 | x4 | x4 || %412
 x4 | x4 |[K:treble] x4 | x4 | x4 |[K:bass] x4 | x4 |[K:treble] x4 || x3[K:bass] x | x4 | x4 | %423
 [G,=B,]2 x2 | x4 | x4 | x4 | x3[K:treble] x | x4 | x4 | x4 |[K:bass] x3[K:treble] x | x4 | x4 | %434
[K:bass] x4 | x4 |[K:treble] x4 | x4 | x4 | x4 | x4 | x4 | B,2 A,2 | %443
[K:bass] G,/A,/E/A,/ E,/G,/C/G,/ | D,/E,/G,/E,/ C,/E,/G,/E,/ | x4 | x4 | x4 |] %448
[K:G][M:3/4][K:treble] x6 | x6 |[K:bass] D,6 | x2 D,2- D2 | D,2 D,4- | D,2 E,4 | x6 | %455
[K:treble] B,6 ::[K:bass] z2 (B,,2 z2) | z2 (A,,2 z2) | z2 (D,2 z2) | z2 (B,,2 z2) | %460
 z2 ((A,,2 z2)) | z2 (D,2 z2) | z2 (B,,2 z2) | z2 (D,2 z2) | z2 (E,,2 (.B,,2) | z2) !>!B,4 | %466
 z2 (.E,,2 (.B,,2) | z2) !>!B,4 | z2 (.E,,2 .B,,2) |[K:treble] x6 | x2[K:bass] A,,4[K:treble] | %471
 x2[K:bass] (.D,,2 .D,2) |[K:treble] z2 (D2 z2) | z2 (D2 z2) | x6 | (A,4 z2) | z2 (G,2 z2) | %477
 z2[K:bass] .C,2 .A,,2 | z2[K:treble] (A2- [DA]2) |[K:bass] x6 :|[K:F] x6 | x6 | x6 | x6 | x6 | %485
 x6 | x6 | x6 |[K:treble] x6 |[K:bass] x6 |[K:treble] x6 |[K:bass] x6 |[K:treble] x6 |[K:bass] x6 | %494
[K:treble] x6 |[K:bass] x6 | z2 (G,,,4 | z2) (G,,4 | z2) (G,,,4 | x2 z4) | z2 (G,,,4 | z2) G,,4 | %502
 z2 G,,4 | x2 z4 | x6 | x6 | x6 | x4 [_E,_C]2- | G,,6 | x6 | x6 | x6 | x6 | x6 | x6 | x6 | x6 | %517
 x6 | x6 | x6 ||[K:G][K:treble] x6 | x2[K:bass] [G,,D,]2[K:treble] x2 | x6 | x6 | %524
 x2[K:bass] [G,,D,]2[K:treble] x2 | x4 z2 |[K:bass] x6 | z2 (.B,,,2 .B,,2) || z2 (^D,2 z2) | %529
 z2 (^C,2 z2) | z2 (F,2 z2) | z2 (^D,2 z2) | z2 ((^C,2 z2)) | z2 (F,2 z2) | z2 (^D,2 z2) | %535
 z2 (F,2 z2) | z2 (^G,,2 (.^D,2) |[K:treble] z2) !>!^D4 |[K:bass] z2 (.^G,,2 (.^D,2) | z2) !>!^D4 | %540
 z2 (.^G,,2 .^D,2) |[K:treble] x6 | x2[K:bass] ^C,4[K:treble] | x2[K:bass] (.F,,2 .F,2) | %544
[K:treble] z2 F4 | z2 F4 | x6 | A,6 | z2 (G,2 z2) | z2[K:bass] (.C,2 .A,,2) | D,6[K:treble] | %551
[K:bass] x6 | x6 | x6 | x6 | x6 | x6 | x6 | x6 | x6 | x6 | x6 | x6 |[K:treble] x6 | x6 | x6 | x6 | %567
 x5!8va(! (7:4:7(d/4(g/4)(b/4)[I:staff -1]e'/4)g'/4d''/4e''/4!8va)! |!8va(! x6!8va)! | x6 | x6 | %571
 x6 |[I:staff +1][K:bass] x6 | [G,,D,]2- z2 !trill)!z2 | x6 | x6 |][M:2/4][K:treble] x4 | x4 | x4 | %579
 x4 | x4 | x4 | x4 | x4 | x4 | x4 | x4 | x4 | x4 | x4 | x4 | x4 | x4 | x4 | x4 | x4 | %596
 x[K:treble] x3 |[K:bass] x4 | x4 | x4 | x4 | x4 | x4 | x4 | x4 | x4 | x4 | x4 | x4 | x4 | %610
[K:treble] x4 | x4 | x4 | x4 | x4 | x2[K:bass] x2 | x4 | x4 | x4 | x4 | x2[K:treble] x2 | x4 | x4 | %623
 x4 | x4 | x4 | x2[K:bass] x2 | x4 | x4 | x2[K:treble] x2 | x4 | x4 | x4 | x4 | x4 | x4 | x4 | x4 | %638
[K:bass] x4 | x4 | x4 | x4 |[K:treble] x4 | x4 | x4 | z2[K:bass] [C,G,]2 | %646
[K:treble] [EGd] x [EGd] x | z2[K:bass] [C,G,]2 |[K:treble] [EGd] x [EGd] x | x4 | x4 | x4 | x4 | %653
 x4 | x3[K:bass] x | x4 |!8vb(! x/!8vb)! x7/2 | x4 | x4 | x4 | x4 | x4 | x4 | x4 | x4 | x4 | x4 | %667
 x4 | x4 ||[K:F#] x4 | x[K:treble] x3 | !tenuto!a4- | a4 | !tenuto!a4- | a4- | a2 !tenuto!a2 | %676
 (a4 | g4- | g2) a2 | d2 e2 | (a4 | g4- | g2) a2 | d2 e2 | g2 d'2 | c'2 a2 | g4 | f4 | g2 d'2 | %689
 c'2 a2 | g4 | f4 | d4- | d4- | d4 | c2[I:staff -1] ^B2 | c4[I:staff +1][K:bass] | x4 | x4 | x4 | %700
 x4 | x4 | x4 | x4 | x4 | x4 | x[K:treble] x3 | x4 | x4 | x4 | x4 | x4 | x4 | x4 | x4 | x4 | x4 | %717
 x4 | x4 ||[K:G] x4 |[K:bass] x4 | x4 | x4 | x4 | x4 | x4 | x4 | x4 | x4 | x4 | x4 | x4 | x4 | x4 | %734
 x4 | x4 | x4 | x4 | x4 | x4 | x4 | x4 | x4 |[K:treble] x3[K:bass] x | x[K:treble] x2[K:bass] x | %745
 x[K:treble] x3 | x[K:bass] x2[K:treble] x | x3[K:bass] x | x4 | x4 | E,,4 | x4 | x4 | x4 | x4 | %755
 x4 | x4 | x4 | x4 | x4 | x4 | x4 | x4 | x4 | x4 |[K:treble] x4 |[K:bass] x4 | x4 | x4 | x4 | x4 | %771
 x4 | x4 | x4 | x4 | x4 | x4 | x4 | x4 | x4 |[K:treble] x4 | x3[K:bass] x |[K:treble] x4 | %783
 x3[K:bass] x |[K:treble] x4 | x3[K:bass] x |[K:treble] x4 | x4 | x3/2[K:bass] x/[K:treble] x2 | %789
 x3/2[K:bass] x/[K:treble] x2 | x3/2[K:bass] x/[K:treble] x2 | x4 ||[K:E][K:bass]!8vb(! x4!8vb)! | %793
 x4 | x2[K:treble] x2 | x4 | x4 |[K:treble] x4 | x4 |[K:bass] x4 | x4 | x4 | x4 | x4 | x4 | x4 | %806
 x4 | x4 |[K:treble] x4 | x2[K:bass] x2 |[K:treble] x4 | x2[K:bass] x2 |[K:treble] x4 | %813
 x[K:bass] x[K:treble] x2 | x[K:bass] x[K:treble] x2 | x[K:bass] x[K:treble] x2 | x4 | x4 | x4 | %819
 x4 |[K:bass] x4 | x4 | x4 | x2[K:treble] x2 | x4 | x2[K:bass] x2 | z2 x2 |] %827
V:4
 x6 | x6 | x6 | x6 |: x6 | x6 | x6 | x6 | x6 |{D-} x3{D-} D x2 | x6 |{D-} x3{D-} D x2 | x6 | x6 | %14
 x6 | x6 | x6 | x6 | x6 | x6 | x6 | x6 | x6 | x6 | x6 | x6 | x6 | x6 | x6 | (B, z/) z3/2 z3 |1 x6 | %31
 (B, z/) z3/2 z3 | x6 :|2 x6 | x6 | x6 || x6 | %37
{[D-A]} (D/[I:staff +1]C,/G,/A,/C/E/)[I:staff -1]{[D-A]} (D/[I:staff +1]C,/G,/A,/C/E/) | x6 | %39
[I:staff -1]{[D-A]} (D/[I:staff +1]C,/G,/A,/C/E/)[I:staff -1]{[D-A]} (D/[I:staff +1]C,/G,/A,/C/E/) | %40
[I:staff -1] (e/A/D/[I:staff +1]E/C/A,/ =F,/G,/B,/D/E/G/) | %41
[I:staff -1] (e/A/D/[I:staff +1]E/C/A,/ =F,/G,/B,/D/E/G/) | %42
[I:staff -1] (e/A/D/[I:staff +1]E/C/A,/ =F,/G,/B,/D/E/G/) | %43
[I:staff -1] (d/G/C/[I:staff +1]D/_B,/G,/ _E,/=F,/A,/C/D/=F/) | %44
[I:staff -1] (d/G/C/[I:staff +1]D/_B,/G,/ _E,/=F,/A,/C/D/=F/) | %45
[I:staff -1] (d/G/C/[I:staff +1]D/_B,/G,/ _E,/=F,/A,/C/D/=F/) | %46
{AG} (A/^F/C/[I:staff +1]=B,/A,/^F,/[I:staff -1][K:bass][I:staff -1] E,/D,/A,,/[I:staff +1]B,,/D,/F,/) | %47
 x6 | x6 | %49
[I:staff -1]{[A,-E]} (A,/[I:staff +1]G,/D,/E,/G,/B,/)[I:staff -1]{[A,-E]} (A,/[I:staff +1]G,/D,/E,/G,/B,/) | %50
 x6 | %51
[I:staff -1]{[A,-E]} (A,/[I:staff +1]G,,/D,/E,/G,/B,/)[I:staff -1]{[A,-E]} (A,/[I:staff +1]G,,/D,/E,/G,/B,/) | %52
[I:staff -1][K:treble](x/!courtesy!^F/E/[I:staff +1]D/_B,/F,/ C,/G,/_B,/ D/E/A/) | %53
[I:staff -1](x/F/E/[I:staff +1]D/_B,/F,/ C,/G,/_B,/ D/E/A/) | %54
[I:staff -1][K:bass]{_A,_B,} A,/G,/A,/-[I:staff +1]=E,/C,/=F,,/[I:staff -1]{A,B,}A,/G,/A,/-[I:staff +1]=E,/C,/F,,/ | %55
[I:staff -1][K:treble]((x/E/=B,/[I:staff +1]D/_A,/=F,/ C,/=F,/_A,/ C/D/G/)) | %56
[I:staff -1](x/E/=B,/[I:staff +1]D/_A,/=F,/ C,/=F,/_A,/ C/D/G/) | %57
[I:staff -1][K:bass]{_G,_A,} (G,/=F,/G,/-[I:staff +1]D,/_B,,/_E,,/)[I:staff -1]{G,A,} (G,/F,/G,/-[I:staff +1]D,/B,,/E,,/) | %58
[I:staff -1] (=D,/^C,/D,/) x9/2 | (^D/^C/D/) x3[K:treble] x3/2 | x6 | x6 | x6 | x6 | %64
[K:bass] x7/2[K:treble] x5/2 | x6 | x6 | x3/2 _d3/2[I:staff +1]c3/2_B3/2 | x6 | x6 | x6 | x6 | x6 | %73
 x6 | x6 | x6 | x6 |[I:staff -1]{[=d-b]} d3{[=d-b]} d3 |{[e-c']} e3{[e-b]} e3 | %79
{[e=g]-} [eg]3 x3/2[K:bass] x3/2 | x3/2[K:treble] x9/2 |[K:treble]!8va(! x6 | x3!8va)! x3 | x6 | %84
[K:bass] x6 | (.G, z/) z3/2 x3 | %86
{B,-} (B,/[I:staff +1]A,/E,/F,/A,/D/)[I:staff -1]{B,-} (B,/[I:staff +1]A,/E,/D,/A,/D/) | %87
[I:staff -1] (.G, z/) z3/2 x3 | %88
{B,-} (B,/[I:staff +1]A,/E,/F,/A,/D/)[I:staff -1]{B,-} (B,/[I:staff +1]A,/E,/D,/A,/D/) | %89
 (.G, z/) z3/2[I:staff -1][K:treble] x3 | x3[K:bass] x3 | x3!8va(! x3!8va)! |[K:bass] x6 | x6 | %94
 x3[K:treble] x3 | x6 | x6 |][K:G][M:4/4] z (!>!a .g) z (!>!bg .e) z | (!>!a.g) z (!>!b .g)!>!bge | %99
 z (!>!e .d) z (!>!fd .B) z | (!>!e.d) z (!>!f .d)(!>!fdB- | B8) | z (efd (3edc Bd | B4) A4- | %104
 AF^GE (3BA=G FA- | A(!>!A .G) z (!>!BG .E) z | (!>!A.G) z (!>!B .G)(!>!BGE | F6) E2- | %108
 EB^cA (3BAG FA | D3 F G2 A(B | A3 B c2 de | G2) F4 E2- | EFAF (3GFE DF | ^C2 z d ^c3 d | %114
 Bde^c (3dcB AB | =c4- cGFA | ^G2 =G2 E2 D2 | EGA^F B2 _B2 | A(!>!A, .B,) z (!>!G,B, .D) z | %119
 (!>!A,.B,) z (!>!G, B,)!>!G,B,D- | D2 CB, A,2 c2 | A3 B c3 d | e6 B2 | (E2 G2 A3) G- | G6 D2- | %125
 D3 (!>!D E4) |[K:bass] x8 | A,G,A,F, (3G,F,E, D,F,- | F,E,D,F, B,,4- | B,,[K:treble]BcA (3cBA FA | %130
 GDCE Dbc'a | b3 (!>!e d) x (!>!ed | .B) z (!>!e.d) z (!>!f .d)(!>!f |dB) z2 z (B^cA | %134
 (3BAG FA G2 FD | E)(GAF (3GFE E2- | E)(EFG A2 (3AGF | G)B c2 B G2 F | EGFG (3GAB ^cA | %139
 d(!>!G .F) z (!>!AF .D) x | z2 z =C .D z B,D | .=F z CD z B,DB, | D=F E3 (DCE | %143
 (3DE=F) E(c BcAG- | G) z (!>!G.A) z (!>!FA.c) | z G .A z (!>!F.A)!>!FA | c3 (!>!B c) z (BG | %147
 .E) z z (!>!E .F) z (EC | A,2-) A,(^F, (^G,2)[K:bass] _A,)C, | D,2 _E,4 D,2- | %150
 D,(E,D,F, (3E,F,G, A,F, | B,)(E,ED (3G,A,B, CA, | E,3 D, G,)[K:treble]G =FA | (3GAB Eg =fa bd' | %154
 e'2 (e.d) z (fd.B) | z (e.d) z (f.d)(fd | .B) z z (efd (3edc | Bd A2 B2) x2 |][M:6/8] x6 | x6 | %160
 x6 | ^C3 =C3 | x6 | x6 | x6 | ^C3 =C3 |: x3 z z/ B/b- | (d>^c^d) (^g>^ag) | (f^ce) (^g>^ag) | %169
 f^ce x3 | a3 ^g3 | f3 e3 | ^c3 A3 | E3 ^C3 | x6 | x6 | B3 [Be]3- | [Be]6 | _e3 _B3 | A3 [Ad]3- | %180
 [Ad]6 | _d3 _A3 | x6 | x6 | x6 | C3 =C3 :| x3 (f'>e'b) |: (a>gd) (c>BF) |[K:bass] (F>ED) (FEB,) | %189
 (B,2 A,) (FEB,) | (B,2 A,)[K:treble] (f'>e'b) | (a>gd) (c>BF) |[K:bass] (F>ED) (FEB,) | %193
 (B,2 A,) F,3 |1 x3[K:treble] (f'>e'b) ::2[K:bass] x3[K:treble] [B^d]3 || [^d^^f]3 [^ce]3 | %197
 [^e^a]3 [^df]3 | [B^d]3 [^E^G]3 | [^^F^A]3 [^A,^D]3 | [^C^E]3 [B,^D]3 | [^^F^A]3 [^F=A]3 | %202
 ^D3{=B,-} B,3 | x3 (f'>e'b) | (a>gd) (c>BF) |[K:bass] (F>ED) (FEB,) | (B,2 A,) (FEB,) | %207
 (B,2 A,)[K:treble] (f'>e'b) | (a>gd) (c>BF) |[K:bass] (F>ED) (FEB,) |2 (B,2 A,) F,3 :|1 %211
 (B,2 A,) x3 || x3/2[K:treble] x9/2 | x6 | x6 | C3 =C3 | x6 | x6 | x6 | (^C>E,C) =C3 || %220
 x3{d-} x2 x |: x6 | x3{d-} x2 x | x3 [Bd]2 [Bd] | x3{c-} x2 x | x6 | x6 | x6 |1 x3{d-} x2 x :|2 %229
 x3{g-} x2 x || x6 | x3{g-} x2 x | x6 | x3{[ac']-} x2 x | x6 | x3{a-} x2 x | x6 | x6 | x6 | x6 | %240
 x6 | x6 | x6 | x6 | x6 | x3{d-} x2 x | x6 | x3{d-} x2 x | x3 [Bd]2 [Bd] | x3{c-} x2 x | x6 | x6 | %252
 x6 || [^Ge] x5 | x6 | x6 | ^C3 =C3 | x6 | x6 | x6 | (^C>E,C) =C3 | x3 ^d3- | (d>^c^d) (^g>^ag) | %263
 (f^ce) (^g>^ag) | (f^ce fa=c') | a3 ^g3 | f3 e3 | !tenuto!^c3 !tenuto!A3 | %268
 !tenuto!E3 !tenuto!^C3 | x6 | x6 | B3 [Be]3- | [Be]6 | _e3 _B3 | A3 [Ad]3- | [Ad]6 | _d3 _A3 | %277
 x6 | x6 | x6 | C3 =C3 ||[K:E] x3{[EG]-} x3 | x6 | x3{[cf]-} x3 | x6 | [Gc]2 x{[EG]-} x3 | x6 | %287
 x3{ec-} x3 | !>![CEFB]3 x3 |: x3{[=gb]-} x3 | x6 | x3{[=f-a-=c']} x3 | x6 | x3{[E-G-B]} x3 | %294
 !>!B,2 x4 | x3{e^B-} x3 | x6 :|[K:G] x6 | x6 | x6 | x3 ^c3 | x6 | x6 | x6 | x3 ^c3 | x6 | x6 | %307
 x6 | x6 | x6 | x6 | x6 | x6 | x6 | x6 | x6 | x6 | x6 |!8va(! x!8va)! x2{[eb]-} x3 | x6 |] %320
[K:C][M:2/4] x4 | x4 | x4 | x4 | x4 | x4 | x4 | x4 :: x4 | x4 | x4 | [FA]2 x2 | x4 | x4 | x4 | x4 | %336
 x4 | x4 | [=A^c]2 x2 | x4 | x4 | x4 | x4 | x4 | x4 | x4 | x4 | x4 | x4 | x4 | x4 | x4 | x4 | x4 | %354
 x4 | x4 :|[K:Eb] x4 | x4 | x4 | x4 | x4 | x4 | x4 | x4 | x4 | x4 | x4 | x4 | x4 | x4 | x4 | x4 | %372
 x4 | x4 | x4 | x4 | x4 | x4 | x4 | x4 | x4 | x4 | x4 | x4 | x4 | x4 | x4 | x4 ||[K:C] x4 | x4 | %390
 x4 | x4 | x4 | z ^D z F | z ^^F x2 | x4 | x4 | x4 | x4 | x4 | x4 | x4 | x4 | x4 | x4 | x4 | x4 | %407
 x4 | x4 | x4 | x4 | x4 || x4 | x4 | x4 | x4 | x4 | x4 | x4 | x4 || x4 | x4 | x4 | [FA]2 x2 | x4 | %425
 x4 | x4 | x4 | x4 | x4 | [=A^c]2 x2 | x4 | x4 | x4 | x4 | x4 | x4 | x4 | x4 | x4 | x4 | x4 | x4 | %443
 x4 | x4 | x4 | x4 | x4 |][K:G][M:3/4] x6 | x6 | x2 C2- C2 | x6 | (E4 F2 | G4) G2 | x6 | x6 :: %456
 [FB]6 | [EA]6 | [=FA]6 | [^FB]4 [FA]2 | [EA]4 [EG]2 | [=FA]4 [FA]2 | [^FB]6 | [A^c]6 | %464
 ([FB]4 [GB]2) | A2 [^CA]4 | ([FB]4 [GB]2) | A2 [^CA]4 | [FB]6 | x6 | (^c4 B2) | A6 | x6 | x6 | %474
 [d=f]2 ([Bd]2 [Be]2) | [Ac]4 [c=g]2 | [=fa]6 | [Be]4 [Beg]2 | [Bd]2 c4 | [GB]4 x2 :|[K:F] x6 | %481
 x6 | x6 | x6 | x6 | x6 | x6 | x6 | x6 | x6 | x6 | x6 | x6 | x6 | x6 | x6 | x6 | x6 | x6 | x6 | %500
 x6 | x6 | x6 | x6 | (!>![_DF_A]4 [C=EG]2 | [=B,^D^F]2 [CEG]2 [G,CE]2) | (!>![_B,_D=F]4 [_A,C_E]2 | %507
 [G,=B,=D]2 [_A,C_E]2) x2 | x6 |[K:bass] x6 | x6 | x6 |[K:treble] x6 | x6 | x6 | x6 | x6 | x6 | %518
[K:bass] x6 | x6 ||[K:G][K:treble] x6 | x6 | x6 | x4 f2 | e4 f2 | e6 | x6 | x6 || [^A^d]6 | %529
 [^G^c]6 | [A^c]6 | [^A^d]4 [A^c]2 | [^G^c]4 [GB]2 | [=A^c]4 [Ac]2 | [^A^d]6 | [^c^e]6 | %536
 ([^A^d]4 [Bd]2) | ^c2 [^Ec]4 | ([^A^d]4 [Bd]2) | ^c2 [^Ec]4 | [^A^d]6 | x6 | (^e4 ^d2) | ^c6 | %544
 x6 | x6 | [ce]2 ([B^d]2 [B=d]2) | [Ac]4 .[cg]2 | [=fa]6 | [Be]4 [Beg]2 | B2 c4 | [GB]4 (F2 | %552
 E4 F2 | G4 F2) | (E4 F2 | G4 F2) | z2 (E2 F2 | G2 A2 B2) | x6 | x6 | x6 | x6 | x6 | x6 | x6 | x6 | %566
 x6 | x6 |!8va(! x6!8va)! | [bd']2 ([gbc']d') x2 | [Bd]2 ([GBc]d) x2 | x6 | x6 | !trill)!D6 | %574
 [B,D]6- | [B,D]2 x4 |][M:2/4] x4 | x4 | x4 | x4 | x4 | x4 | x4 | x4 | x4 | x4 | x4 | x4 | x4 | %589
 x4 | x4 | x4 | x4 | x4 | x4 | x4 | x4 | x4 |[K:bass] x4 | x4 | x4 | x4 | x4 | x4 | x4 | x4 | x4 | %607
[K:treble] x4 |[K:bass] x4 |[K:treble] x4 | x4 | x4 | x4 | x4 | x4 | x4 | x4 |[K:bass] x4 | x4 | %619
 x4 | x5/2[K:treble] x3/2 | x4 | x4 | x4 | x4 | x4 | x2[K:bass] x2 | x4 | x4 | %629
 x5/2[K:treble] x3/2 | x4 | x4 |x/f/d/b/x/f/d/b/ | z f/B/ b/e/=c/a/ | z f/A/ e/c/f/^c/ | %635
x/F/D/B/x/F/D/B/ | z F/B,/ B/E/C/A/ | z F/A,/ E/C/F/^C/ | %638
[K:bass] B,/"_cresc."F,/D,/A,/ B,/F,/D,/A,/ | D/G,/E,/^C/ G,C/G,/ | E/A,/F,/D/ F,F/^C/ | %641
 E/B,/G/D/[I:staff +1] B,/[I:staff -1]D/[I:staff +1]^C/[I:staff -1]E/ | %642
[K:treble] B/F/D/A/ d/G/E/^c/ | e/A/F/e/ F^c/A/ | a/d/B/g/ Bf/d/ | x4 | x4 | x4 | x4 | x4 | x4 | %651
 x4 | x4 | x4 | x2[K:bass] x2 | x4 | x4 | x4 | x4 | x4 | x4 | x4 | x4 | x4 | x4 | x4 | x4 | x4 | %668
 x4 ||[K:F#] x4 | x3/2[K:treble] x5/2 | x4 | x4 | x4 | x4 | x4 | x4 | x4 | x4 | x4 | x4 | x4 | x4 | %683
 x4 | x4 | x4 | x4 | x4 | x4 | x4 | x4 | x4 | x4 | x4 | x4 | x4 | x5/2[K:bass] x3/2 | x4 | x4 | %699
 x4 | x4 | x4 | x4 | x4 | x4 | x4 | x3/2[K:treble] x5/2 | d'4- | d'4 | %709
 [egc']/c/[I:staff +1][EGc]/C/[I:staff -1] [EGc]/C/[I:staff +1][G,C]/E,/ | %710
[I:staff -1] [eg]/c/[I:staff +1][ce]/G/[I:staff -1] [gb]/d/[I:staff +1][GBd]/D/ | %711
[I:staff -1] [Bdg]/G/[I:staff +1][B,DG]/G,/[I:staff -1] [dfa]/A/[I:staff +1][DFA]/A,/ | %712
[I:staff -1] [f=ac']/c/[I:staff +1][CF=A]/D,/[I:staff -1] [c'g']/g/[I:staff +1][cg]/G/ | %713
[I:staff -1] [c'f']/f/[I:staff +1][cf]/F/[I:staff -1] [gb]/d/[I:staff +1][GBd]/D/ | %714
[I:staff -1] [f=ac']/c/[I:staff +1][F=Ac]/C/[I:staff -1] [F=Ac]/C/[I:staff +1][=A,C]/D,/ | %715
[I:staff -1] [dfb]/B/[I:staff +1][DFB]/B,/[I:staff -1] [DFB]/B,/[I:staff +1][F,B,]/D,/ | %716
[I:staff -1] [Bdg]/G/[I:staff +1][B,DG]/G,/[I:staff -1] [B,DG]/G,/[I:staff +1][G,B,]/D,/ | %717
[I:staff -1] [G,B,]/D/[I:staff +1]D/[GB]/[I:staff -1] [df]/A/[I:staff +1][DFA]/A,/ | %718
[I:staff -1] [Bd]/F/[I:staff +1][B,DF]/F,/[I:staff -1] [B=d]/E/[I:staff +1][B,=DE]/E,/ || %719
[K:G] x2[I:staff -1][K:bass] x2 | x4 | x4 | x4 | x4 | x4 | x4 | x4 | x4 | x4 | x4 | %730
 C/A,/[I:staff +1]A,/E,/[I:staff -1] A,/E,/[I:staff +1][C,E,]/F,,/ | %731
[I:staff -1] C/A,/[I:staff +1]A,/D,/[I:staff -1] A,/D,/[I:staff +1][C,D,]/F,,/ | %732
[I:staff -1] C/A,/[I:staff +1]A,/D,/[I:staff -1] C/A,/[I:staff +1]A,/E,/ | %733
[I:staff -1] E,/C,/[I:staff +1]C,/A,,/[I:staff -1] A,/E,/[I:staff +1]E,/C,/ | %734
[I:staff -1] ^C/^A,/[I:staff +1]^A,/E,/!>(![I:staff -1] E,/^C,/C,/^A,,/!>)! | x4 | x4 | x4 | x4 | %739
 x4 | x4 | x4 | x4 | %743
[K:treble] [^A=c]/E/[I:staff +1][^A,=CE]/E,/[K:bass][I:staff -1] [^A,=CE]/E,/[I:staff +1]E,/F,,/ | %744
[I:staff -1][K:treble] [^Ac]/D/[I:staff +1][^A,CD]/D,/[K:bass][I:staff -1] [^A,CD]/D,/[I:staff +1]D,/F,,/ | %745
[I:staff -1][K:treble] [^Ac]/D/[I:staff +1][^A,CD]/D,/[I:staff -1] [Ac]/E/[I:staff +1][A,CE]/E,/ | %746
[I:staff -1] [CE]/G,/[I:staff +1]G,/F,,/[I:staff -1] [EG]/^A,/[I:staff +1]E/^A,/ | %747
 [^Gd]/E/[I:staff +1]E/E,/[I:staff -1][K:bass]!>(![I:staff -1] E/E,/[I:staff +1]E,/E,,/!>)! | x4 | %749
 x4 | x4 | x4 | x4 | x4 | x4 | x4 | x4 | x4 | x4 | x4 | x4 | x4 | x4 | x4 | x4 | %765
[I:staff -1][K:treble] x4 | %766
[K:bass] [G,B,]/D,/[I:staff +1]D,/^C,,/[I:staff -1] [G,B,]/D,/[^G,B,]/E,/ | %767
 [E,A,]/^C,/[I:staff +1]^C,/^C,,/[I:staff -1] [E,!courtesy!=G,]/B,,/[C,E,]/A,,/ | %768
 [G,B,]/D,/[I:staff +1]D,/^C,,/[I:staff -1] [G,B,]/D,/[^G,B,]/E,/ | %769
 [E,A,]/C,/[E,!courtesy!=G,]/B,,/ [^C,E,]/A,,/[I:staff +1]A,,/^C,,/ | %770
[I:staff -1] [B,E]/G,/[I:staff +1][E,G,]/^C,,/[I:staff -1] [B,E]/G,/[^CE]/A,/ | %771
 [A,^C]/F,/[I:staff +1][^C,F,]/^C,,/[I:staff -1] [A,C]/E,/[F,^A,]/D,/ | %772
 [B,E]/G,/[I:staff +1][E,G,]/^C,,/[I:staff -1] [B,E]/G,/[^CE]/A,/ | %773
 [^A,^C]/F,/[G,B,]/D,/ [F,=A,]/^C,/[I:staff +1][^A,,C,]/^C,,/ | %774
[I:staff -1] [D=F]/=A,/[I:staff +1][B,,,B,,]/[I:staff -1]A,/ [DF]/A,/[^D^F]/B,/ | %775
 [B,=D]/G,/[I:staff +1][B,,,B,,]/[I:staff -1]G,/ D/A,/B,/G,/ | %776
[K:treble] [=FA]/D/[I:staff +1][B,,,B,,]/[I:staff -1]D/ [FA]/D/[^GB]/E/ | %777
 [E=G]/C/[I:staff +1][B,,,B,,]/[I:staff -1]C/ [D^F]/B,/[CE]/A,/ | %778
 [Ad]/=F/[I:staff +1][B,,,B,,]/[I:staff -1]F/ [Ad]/F/[Bd]/F/ | %779
 [^GB]/E/[=FA]/D/ [E=G]/C/[I:staff +1][B,,,B,,]/[I:staff -1]C/ | %780
 [d=f]/A/[I:staff +1][D=FA]/A,/[I:staff -1] [Ac]/E/[I:staff +1][A,CE]/=F,/ | x4 | x4 | x4 | x4 | %785
 x4 | x4 | x4 | x4 | x4 | x4 | x4 ||[K:E][I:staff -1][K:bass]!8vb(! x4!8vb)! | x4 | %794
 x5/2[K:treble] x3/2 | x4 | x4 | x4 | x4 | x4 | x4 | x4 |[K:bass] x4 | x4 | x4 |[K:treble] x4 | %806
 x4 | x4 | x4 | x4 | x4 | x4 | x4 | x4 | x4 | x4 | x4 | x4 | x4 | x3[K:bass] x | x2[K:treble] x2 | %821
 x4 | x4 | x4 | x4 | x4 | x2[K:bass]{/E,}[I:staff +1] [E,,,E,,]2 |] %827
V:5
 x6 | x6 | x6 | x6 |: x6 | x6 | x6 | x6 | x6 | x6 | x6 | x6 | x6 | x6 | x6 | x6 | x6 | x6 | x6 | %19
 x6 | x6 | x6 | x6 | x6 | x6 | x6 | x6 | x6 | x6 | x6 |1 x6 | x6 | x6 :|2 x6 | x6 | x6 || x6 | x6 | %38
 x6 | x6 | x6 | x6 | x6 | x6 | x6 | x6 | x3[K:bass] x3 | x6 | x6 | x6 | x6 | x6 |[K:treble] x6 | %53
 x6 |[K:bass] x3/2 A,3/2 x3/2 A,3/2 |[K:treble] x6 | x6 |[K:bass] x3/2 G,3/2 x3/2 G,3/2 | x6 | %59
 x9/2[K:treble] x3/2 | x6 | x6 | x6 | x6 |[K:bass] x7/2[K:treble] x5/2 | x6 | x6 | x6 | x6 | x6 | %70
 x6 | x6 | x6 | x6 | x6 | x6 | x6 | x6 | x6 | x9/2[K:bass] x3/2 | x3/2[K:treble] x9/2 | %81
[K:treble]!8va(! x6 | x3!8va)! x3 | x6 |[K:bass] x6 | x6 | x6 | x6 | x6 | x3[K:treble] x3 | %90
 x3[K:bass] x3 | x3!8va(! x3!8va)! |[K:bass] x6 | x6 | x3[K:treble] x3 | x6 | x6 |] %97
[K:G][M:4/4] x8 | x8 | x8 | x8 | x8 | x8 | x8 | x8 | x8 | x8 | x8 | x8 | x8 | x8 | x8 | x8 | x8 | %114
 x8 | x8 | x8 | x8 | x8 | x8 | x8 | x8 | x8 | x8 | x8 | x8 |[K:bass] x8 | x8 | x8 | %129
 x[K:treble] x7 | x8 | x8 | x8 | x8 | x8 | x8 | x8 | x8 | x8 | x8 | x8 | x8 | x8 | x8 | x8 | x8 | %146
 x8 | x8 | x6[K:bass] x2 | x8 | x8 | x8 | x5[K:treble] x3 | x8 | x8 | x8 | x8 | x8 |][M:6/8] x6 | %159
 x6 | x6 | x6 | x6 | x6 | x6 | x6 |: x6 | x6 | x6 | x6 | x6 | x6 | x6 | x6 | x6 | x6 | x6 | x6 | %178
 x6 | x6 | x6 | x6 | x6 | x6 | x6 | x6 :| x6 |: x6 |[K:bass] x6 | x6 | x3[K:treble] x3 | x6 | %192
[K:bass] x6 | x6 |1 x3[K:treble] x3 ::2[K:bass] x3[K:treble] x3 || x6 | x6 | x6 | x6 | x6 | x6 | %202
 x6 | x6 | x6 |[K:bass] x6 | x6 | x3[K:treble] x3 | x6 |[K:bass] x6 |2 x6 :|1 x6 || %212
 x3/2[K:treble] x9/2 | x6 | x6 | x6 | x6 | x6 | x6 | x6 || x6 |: x6 | x6 | x6 | x6 | x6 | x6 | %227
 x6 |1 x6 :|2 x6 || x6 | x6 | x6 | x6 | x6 | x6 | x6 | x6 | x6 | x6 | x6 | x6 | x6 | x6 | x6 | x6 | %246
 x6 | x6 | x6 | x6 | x6 | x6 | x6 || x6 | x6 | x6 | x6 | x6 | x6 | x6 | x6 | x6 | x6 | x6 | x6 | %265
 x6 | x6 | x6 | x6 | x6 | x6 | x6 | x6 | x6 | x6 | x6 | x6 | x6 | x6 | x6 | x6 ||[K:E] x6 | x6 | %283
 x6 | x6 | x6 | x6 | x3 z2 [CEFB] | x6 |: x6 | x6 | x6 | x6 | x6 | x6 | x6 | x6 :|[K:G] x6 | x6 | %299
 x6 | x11/2 (e/4!trill)!f/4) | x6 | x6 | x6 | x11/2 f/4!trill)!e/4 | x6 | x6 | x6 | x6 | x6 | x6 | %311
 x6 | x6 | x6 | x6 | x6 | x6 | x6 |!8va(! x!8va)! x5 | x6 |][K:C][M:2/4] x4 | x4 | x4 | x4 | x4 | %325
 x4 | x4 | x4 :: x4 | x4 | x4 | x4 | x4 | x4 | x4 | x4 | x4 | x4 | x4 | x4 | x4 | x4 | x4 | x4 | %344
 x4 | x4 | x4 | x4 | x4 | x4 | x4 | x4 | x4 | x4 | x4 | x4 :|[K:Eb] x4 | x4 | x4 | x4 | x4 | x4 | %362
 x4 | x4 | x4 | x4 | x4 | x4 | x4 | x4 | x4 | x4 | x4 | x4 | x4 | x4 | x4 | x4 | x4 | x4 | x4 | %381
 x4 | x4 | x4 | x4 | x4 | x4 | x4 ||[K:C] x4 | x4 | x4 | x4 | x4 | x4 | x4 | x4 | x4 | x4 | x4 | %399
 x4 | x4 | x4 | x4 | x4 | x4 | x4 | x4 | x4 | x4 | x4 | x4 | x4 || x4 | x4 | x4 | x4 | x4 | x4 | %418
 x4 | x4 || x4 | x4 | x4 | x4 | x4 | x4 | x4 | x4 | x4 | x4 | x4 | x4 | x4 | x4 | x4 | x4 | x4 | %437
 x4 | x4 | x4 | x4 | x4 | x4 | x4 | x4 | x4 | x4 | x4 |][K:G][M:3/4] x6 | x6 | x6 | x6 | x6 | x6 | %454
 x6 | x6 :: x6 | x6 | x6 | x6 | x6 | x6 | x6 | x6 | x6 | x6 | x6 | x6 | x6 | x6 | x6 | x6 | x6 | %473
 x6 | x6 | x6 | x6 | x6 | x6 | x6 :|[K:F] x6 | x6 | x6 | x6 | x6 | x6 | x6 | x6 | x6 | x6 | x6 | %491
 x6 | x6 | x6 | x6 | x6 | x6 | x6 | x6 | x6 | x6 | x6 | x6 | x6 | x6 | x6 | x6 | x6 | x6 | %509
[K:bass] x6 | x6 | x6 |[K:treble] x6 | x6 | x6 | x6 | x6 | x6 |[K:bass] x6 | x6 || %520
[K:G][K:treble] x6 | x6 | x6 | x6 | x6 | x6 | x6 | x6 || x6 | x6 | x6 | x6 | x6 | x6 | x6 | x6 | %536
 x6 | x6 | x6 | x6 | x6 | x6 | x6 | x6 | x6 | x6 | x6 | x6 | x6 | x6 | x6 | x6 | x6 | x6 | x6 | %555
 x6 | x6 | x6 | x6 | x6 | x6 | x6 | x6 | x6 | x6 | x6 | x6 | x6 |!8va(! x6!8va)! | x6 | x6 | x6 | %572
 x6 | x6 | x6 | x6 |][M:2/4] x4 | x4 | x4 | x4 | x4 | x4 | x4 | x4 | x4 | x4 | x4 | x4 | x4 | x4 | %590
 x4 | x4 | x4 | x4 | x4 | x4 | x4 | x4 |[K:bass] x4 | x4 | x4 | x4 | x4 | x4 | x4 | x4 | x4 | %607
[K:treble] x4 |[K:bass] x4 |[K:treble] x4 | x4 | x4 | x4 | x4 | x4 | x4 | x4 |[K:bass] x4 | x4 | %619
 x4 | x5/2[K:treble] x3/2 | x4 | x4 | x4 | x4 | x4 | x2[K:bass] x2 | x4 | x4 | %629
 x5/2[K:treble] x3/2 | x4 | x4 | x4 | x4 | x4 | x4 | x4 | x4 |[K:bass] x4 | x4 | x4 | x4 | %642
[K:treble] x4 | x4 | x4 | x4 | x4 | x4 | x4 | x4 | x4 | x4 | x4 | x4 | x2[K:bass] x2 | x4 | x4 | %657
 x4 | x4 | x4 | x4 | x4 | x4 | x4 | x4 | x4 | x4 | x4 | x4 ||[K:F#] x4 | x3/2[K:treble] x5/2 | x4 | %672
 x4 | x4 | x4 | x4 | x4 | x4 | x4 | x4 | x4 | x4 | x4 | x4 | x4 | x4 | x4 | x4 | x4 | x4 | x4 | %691
 x4 | x4 | x4 | x4 | x4 | x5/2[K:bass] x3/2 | x4 | x4 | x4 | x4 | x4 | x4 | x4 | x4 | x4 | %706
 x3/2[K:treble] x5/2 | x4 | x4 | x4 | x4 | x4 | x4 | x4 | x4 | x4 | x4 | x4 | x4 || %719
[K:G] x2[K:bass] x2 | x4 | x4 | x4 | x4 | x4 | x4 | x4 | x4 | x4 | x4 | x4 | x4 | x4 | x4 | x4 | %735
 x4 | x4 | x4 | x4 | x4 | x4 | x4 | x4 |[K:treble] x2[K:bass] x2 |[K:treble] x2[K:bass] x2 | %745
[K:treble] x4 | x4 | x2[K:bass] x2 | x4 | x4 | x4 | x4 | x4 | x4 | x4 | x4 | x4 | x4 | x4 | x4 | %760
 x4 | x4 | x4 | x4 | x4 |[K:treble] x4 |[K:bass] x4 | x4 | x4 | x4 | x4 | x4 | x4 | x4 | x4 | x4 | %776
[K:treble] x4 | x4 | x4 | x4 | x4 | x4 | x4 | x4 | x4 | x4 | x4 | x4 | x4 | x4 | x4 | x4 || %792
[K:E][K:bass]!8vb(! x4!8vb)! | x4 | x5/2[K:treble] x3/2 | x4 | x4 | x4 | x4 | x4 | x4 | x4 | %802
[K:bass] x4 | x4 | x4 |[K:treble] x4 | x4 | x4 | x4 | x4 | x4 | x4 | x4 | x4 | x4 | x4 | x4 | x4 | %818
 x4 | x3[K:bass] x | x2[K:treble] x2 | x4 | x4 | x4 | x4 | x4 | x2[K:bass] x2 |] %827

